; generated by PrusaSlicer 2.5.0+win64 on 2023-02-14 at 01:58:22 UTC


;
;

;
;
; 

; external perimeters extrusion width = 0.45mm
; perimeters extrusion width = 0.45mm
; infill extrusion width = 0.45mm
; solid infill extrusion width = 0.45mm
; top infill extrusion width = 0.40mm
; first layer extrusion width = 0.42mm

M73 P0 R58
M201 X2500 Y2500 Z400 E5000 ; sets maximum accelerations, mm/sec^2
M203 X180 Y180 Z12 E80 ; sets maximum feedrates, mm / sec
M204 P1250 R1250 T2500 ; sets acceleration (P, T) and retract acceleration (R), mm/sec^2
M205 X8.00 Y8.00 Z2.00 E10.00 ; sets the jerk limits, mm/sec
M205 S0 T0 ; sets the minimum extruding and travel feed rate, mm/sec
M107
;TYPE:Custom
M862.3 P "MINI" ; printer model check
G90 ; use absolute coordinates
M83 ; extruder relative mode
M104 S170 ; set extruder temp for bed leveling
M140 S60 ; set bed temp
M109 R170 ; wait for bed leveling temp
M190 S60 ; wait for bed temp
M204 T1250 ; set travel acceleration
G28 ; home all without mesh bed level
G29 ; mesh bed leveling 
M204 T2500 ; restore travel acceleration
M104 S215 ; set extruder temp
G92 E0
G1 Y-2 X179 F2400
G1 Z3 F720
M109 S215 ; wait for extruder temp

; intro line
G1 X170 F1000
G1 Z0.2 F720
G1 X110 E8 F900
G1 X40 E10 F700
G92 E0

M221 S95 ; set flow
G21 ; set units to millimeters
G90 ; use absolute coordinates
M83 ; use relative distances for extrusion
M900 K0.2 ; Filament gcode LA 1.5
; ; Filament gcode LA 1.0
M107
;LAYER_CHANGE
;Z:0.2
;HEIGHT:0.2
;BEFORE_LAYER_CHANGE
G92 E0.0
;0.2


G1 E-3.2 F4200
G1 Z.2 F720
;AFTER_LAYER_CHANGE
;0.2
G1 Z.4
G1 X62.638 Y24.122 F9000
G1 Z.2 F720
G1 E3.2 F2400
M204 P800
;TYPE:Skirt/Brim
;WIDTH:0.42
G1 F1200
G1 X63.684 Y23.245 E.04278
G1 X64.624 Y23.052 E.03008
G1 X115.376 Y23.052 E1.59131
G1 X116.683 Y23.443 E.04278
G1 X117.56 Y24.489 E.04278
G1 X117.753 Y25.429 E.03008
G1 X117.753 Y154.571 E4.04917
G1 X117.362 Y155.878 E.04278
G1 X116.316 Y156.755 E.04278
G1 X115.376 Y156.948 E.03008
G1 X64.624 Y156.948 E1.59131
G1 X63.317 Y156.557 E.04278
G1 X62.44 Y155.511 E.04278
G1 X62.247 Y154.571 E.03008
G1 X62.247 Y25.429 E4.04917
G1 X62.621 Y24.179 E.0409
M204 P1000
; printing object DelayPCBPanel id:0 copy 0
G1 E-2.24 F4200
;WIPE_START
G1 F7200
G1 X63.684 Y23.245 E-.78411
G1 X63.91 Y23.199 E-.12789
;WIPE_END
G1 E-.048 F4200
G1 Z.4 F720
G1 X114.589 Y153.784 F9000
G1 Z.2 F720
M73 P1 R58
G1 E3.2 F2400
M204 P800
;TYPE:Perimeter
;WIDTH:0.419999
G1 F1200
G1 X110.669 Y153.784 E.12292
G1 X111.305 Y153.423 E.02294
G1 X111.671 Y153.058 E.0162
G1 X111.951 Y152.623 E.01623
G1 X112.13 Y152.137 E.01622
G1 X112.201 Y151.625 E.01623
G1 X112.15 Y151.079 E.01717
G1 X111.961 Y150.518 E.01858
G1 X111.671 Y150.054 E.01714
G1 X111.305 Y149.689 E.01622
G1 X110.869 Y149.411 E.01622
G1 X110.383 Y149.233 E.01622
G1 X109.815 Y149.161 E.01793
G1 X105.983 Y149.161 E.12016
G1 X105.387 Y149.244 E.01887
G1 X104.679 Y149.558 E.02426
G1 X104.11 Y150.081 E.02424
G1 X103.737 Y150.758 E.02424
G1 X103.598 Y151.488 E.02331
G1 X103.648 Y152.033 E.01715
G1 X103.923 Y152.756 E.02424
G1 X104.414 Y153.353 E.02425
G1 X104.904 Y153.685 E.01858
G1 X105.133 Y153.784 E.00781
G1 X74.931 Y153.784 E.94696
G1 X75.568 Y153.423 E.02294
G1 X75.934 Y153.058 E.0162
G1 X76.213 Y152.623 E.01623
G1 X76.392 Y152.137 E.01622
G1 X76.463 Y151.625 E.01623
G1 X76.422 Y151.109 E.01622
G1 X76.27 Y150.614 E.01622
G1 X76.016 Y150.163 E.01622
G1 X75.646 Y149.76 E.01717
G1 X75.07 Y149.379 E.02166
G1 X74.592 Y149.218 E.01581
G1 X74.077 Y149.161 E.01622
G1 X70.245 Y149.161 E.12016
G1 X69.678 Y149.233 E.01793
G1 X69.166 Y149.427 E.01717
G1 X68.543 Y149.886 E.02426
G1 X68.099 Y150.518 E.02422
G1 X67.881 Y151.259 E.02423
G1 X67.88 Y151.852 E.01858
G1 X67.926 Y152.08 E.0073
G1 X68.185 Y152.755 E.02267
G1 X68.676 Y153.353 E.02426
G1 X69.167 Y153.685 E.01858
G1 X69.395 Y153.784 E.00781
G1 X65.411 Y153.784 E.12493
G1 X65.411 Y26.216 E3.99981
G1 X69.437 Y26.216 E.12623
G1 X68.966 Y26.426 E.01618
G1 X68.543 Y26.773 E.01715
M73 P1 R57
G1 X68.099 Y27.406 E.02424
G1 X67.881 Y28.147 E.02423
G1 X67.91 Y28.92 E.02427
G1 X68.185 Y29.644 E.02426
G1 X68.676 Y30.24 E.02422
G1 X69.166 Y30.573 E.01856
G1 X69.678 Y30.767 E.01717
G1 X70.247 Y30.839 E.01798
G1 X74.27 Y30.829 E.12615
G1 X74.39 Y30.815 E.00379
G1 X74.92 Y30.678 E.01717
G1 X75.568 Y30.311 E.02333
G1 X75.934 Y29.946 E.01621
G1 X76.213 Y29.51 E.01623
G1 X76.392 Y29.025 E.01622
G1 X76.463 Y28.512 E.01623
G1 X76.422 Y27.996 E.01622
G1 X76.27 Y27.501 E.01622
G1 X76.016 Y27.051 E.01622
G1 X75.646 Y26.647 E.01717
G1 X75.156 Y26.315 E.01858
G1 X74.927 Y26.216 E.00781
G1 X105.195 Y26.216 E.94901
G1 X104.723 Y26.426 E.01618
G1 X104.301 Y26.773 E.01715
G1 X103.857 Y27.407 E.02426
G1 X103.638 Y28.148 E.02422
G1 X103.668 Y28.92 E.02422
G1 X103.942 Y29.642 E.02424
G1 X104.433 Y30.24 E.02425
G1 X105.014 Y30.622 E.02179
G1 X105.488 Y30.782 E.0157
G1 X106.005 Y30.839 E.01629
G1 X110.028 Y30.829 E.12615
G1 X110.148 Y30.815 E.00379
G1 X110.678 Y30.678 E.01716
G1 X111.325 Y30.311 E.02333
G1 X111.691 Y29.946 E.01621
G1 X111.971 Y29.51 E.01623
G1 X112.15 Y29.025 E.01622
G1 X112.221 Y28.512 E.01622
G1 X112.179 Y27.996 E.01622
G1 X112.028 Y27.501 E.01622
G1 X111.774 Y27.051 E.01622
G1 X111.404 Y26.647 E.01717
G1 X110.914 Y26.315 E.01858
G1 X110.685 Y26.216 E.00781
G1 X114.589 Y26.216 E.12241
G1 X114.589 Y153.724 E3.99793
M204 P1000
G1 X114.966 Y154.161 F9000
M204 P800
;TYPE:External perimeter
G1 F1200
G1 X110.508 Y154.161 E.13978
;WIDTH:0.456705
G1 X110.341 Y154.143 E.00577
;WIDTH:0.49341
G1 X110.174 Y154.125 E.00629
;WIDTH:0.530115
G1 X110.008 Y154.106 E.0068
G1 X105.984 Y154.109 E.16299
;WIDTH:0.547638
G1 X105.541 Y154.097 E.0186
G1 X105.373 Y154.119 E.00712
;WIDTH:0.505092
G1 X105.204 Y154.14 E.00652
;WIDTH:0.462546
G1 X105.036 Y154.161 E.00592
;WIDTH:0.419999
G1 X74.77 Y154.161 E.94896
;WIDTH:0.456705
G1 X74.603 Y154.143 E.00577
;WIDTH:0.49341
G1 X74.437 Y154.125 E.00629
;WIDTH:0.530115
G1 X74.27 Y154.106 E.0068
G1 X70.246 Y154.109 E.16299
;WIDTH:0.547638
G1 X69.803 Y154.097 E.0186
G1 X69.635 Y154.119 E.00712
;WIDTH:0.505092
G1 X69.467 Y154.14 E.00652
;WIDTH:0.462546
G1 X69.298 Y154.161 E.00592
;WIDTH:0.419999
G1 X65.034 Y154.161 E.13371
G1 X65.034 Y25.839 E4.02346
G1 X69.072 Y25.839 E.12663
;WIDTH:0.467648
G1 X69.369 Y25.863 E.0105
;WIDTH:0.515296
G1 X69.665 Y25.886 E.01168
;WIDTH:0.524964
G1 X74.077 Y25.891 E.17685
;WIDTH:0.547641
G1 X74.519 Y25.903 E.01854
G1 X74.687 Y25.881 E.00712
;WIDTH:0.505094
G1 X74.856 Y25.86 E.00652
;WIDTH:0.462547
G1 X75.024 Y25.839 E.00592
;WIDTH:0.419999
G1 X104.83 Y25.839 E.93455
;WIDTH:0.467648
G1 X105.127 Y25.863 E.0105
;WIDTH:0.515297
G1 X105.423 Y25.886 E.01168
;WIDTH:0.524964
G1 X109.835 Y25.891 E.17685
;WIDTH:0.547641
G1 X110.277 Y25.903 E.01854
G1 X110.445 Y25.881 E.00712
;WIDTH:0.505094
G1 X110.614 Y25.86 E.00652
;WIDTH:0.462547
G1 X110.782 Y25.839 E.00592
;WIDTH:0.419999
G1 X114.966 Y25.839 E.13119
G1 X114.966 Y27.47 E.05115
G1 X114.966 Y154.101 E3.97043
M204 P1000
G1 E-2.24 F4200
;WIPE_START
M73 P2 R57
G1 F7200
G1 X113.321 Y154.123 E-.912
;WIPE_END
G1 E-.048 F4200
G1 Z.4 F720
G1 X111.714 Y27.732 F9000
G1 Z.2 F720
G1 E3.2 F2400
M204 P800
G1 F1200
G1 X111.823 Y28.138 E.01316
G1 X111.842 Y28.573 E.01368
G1 X111.778 Y28.964 E.01241
G1 X111.601 Y29.407 E.01495
G1 X111.353 Y29.765 E.01368
G1 X111.025 Y30.067 E.01397
G1 X110.501 Y30.344 E.01858
G1 X110.027 Y30.451 E.01524
G1 X106.001 Y30.462 E.12625
G1 X105.556 Y30.41 E.01403
G1 X105.135 Y30.261 E.01399
G1 X104.644 Y29.927 E.01863
G1 X104.243 Y29.414 E.02041
G1 X104.025 Y28.799 E.02045
G1 X104.015 Y28.148 E.02043
G1 X104.214 Y27.527 E.02043
G1 X104.601 Y27.001 E.02047
G1 X104.996 Y26.701 E.01555
;WIDTH:0.467648
G1 X105.262 Y26.569 E.0105
;WIDTH:0.515297
G1 X105.529 Y26.437 E.01168
;WIDTH:0.526399
G1 X106.003 Y26.373 E.01924
;WIDTH:0.524964
G1 X109.835 Y26.373 E.1536
G1 X110.297 Y26.434 E.01867
;WIDTH:0.51231
G1 X110.5 Y26.53 E.00875
;WIDTH:0.466155
G1 X110.702 Y26.627 E.00789
;WIDTH:0.419999
G1 X111.193 Y26.959 E.01858
G1 X111.51 Y27.329 E.01526
G1 X111.69 Y27.677 E.01231
M204 P1000
G1 X112.11 Y27.792 F9000
G1 E-2.24 F4200
;WIPE_START
G1 F7200
G1 X111.823 Y28.138 E-.26534
G1 X111.842 Y28.573 E-.24174
G1 X111.778 Y28.964 E-.21928
G1 X111.654 Y29.275 E-.18563
;WIPE_END
G1 E-.048 F4200
G1 Z.4 F720
G1 X102.575 Y49.645 F9000
G1 Z.2 F720
G1 E3.2 F2400
M204 P800
;TYPE:Perimeter
G1 F1200
G1 X102.555 Y50.511 E.02716
G1 X102.414 Y51.145 E.02036
G1 X102.169 Y51.748 E.0204
G1 X101.858 Y52.267 E.01898
G1 X101.455 Y52.749 E.01969
G1 X100.983 Y53.162 E.01968
G1 X100.451 Y53.496 E.01969
G1 X99.768 Y53.776 E.02313
G1 X99.264 Y53.896 E.01626
G1 X98.639 Y53.952 E.01969
G1 X98.013 Y53.91 E.01968
G1 X97.125 Y53.671 E.02881
G1 X96.542 Y53.386 E.02036
G1 X95.734 Y52.749 E.03227
G1 X95.384 Y52.339 E.0169
G1 X95.05 Y51.807 E.01969
G1 X94.803 Y51.23 E.01969
G1 X94.65 Y50.621 E.01968
G1 X94.593 Y49.995 E.01971
G1 X94.636 Y49.369 E.01968
G1 X94.775 Y48.756 E.01969
G1 X94.997 Y48.209 E.01853
G1 X95.332 Y47.634 E.02084
G1 X95.734 Y47.152 E.01969
G1 X96.19 Y46.753 E.01901
G1 X97.023 Y46.274 E.03011
G1 X97.618 Y46.07 E.01975
G1 X98.259 Y45.964 E.02038
G1 X99.156 Y45.99 E.02813
G1 X99.789 Y46.131 E.02033
G1 X100.392 Y46.376 E.0204
G1 X101.228 Y46.937 E.03155
G1 X101.609 Y47.318 E.0169
G1 X102.128 Y48.076 E.02882
G1 X102.393 Y48.694 E.02107
G1 X102.577 Y49.585 E.02853
M204 P1000
G1 X102.205 Y49.706 F9000
M204 P800
;TYPE:External perimeter
G1 F1200
G1 X102.178 Y50.496 E.02481
G1 X102.048 Y51.057 E.01805
G1 X101.822 Y51.602 E.0185
G1 X101.537 Y52.07 E.01717
G1 X101.169 Y52.504 E.01786
G1 X100.738 Y52.875 E.01782
G1 X100.254 Y53.175 E.01784
G1 X99.681 Y53.409 E.01941
G1 X99.177 Y53.529 E.01626
G1 X98.609 Y53.576 E.01786
G1 X98.042 Y53.534 E.01782
G1 X97.228 Y53.308 E.02651
G1 X96.713 Y53.05 E.01805
G1 X96.02 Y52.504 E.02766
G1 X95.67 Y52.094 E.0169
G1 X95.371 Y51.61 E.01784
G1 X95.151 Y51.085 E.01784
G1 X95.016 Y50.533 E.01782
G1 X94.969 Y49.965 E.01786
G1 X95.011 Y49.398 E.01783
G1 X95.142 Y48.844 E.01784
G1 X95.345 Y48.354 E.01662
G1 X95.653 Y47.832 E.01902
G1 X96.021 Y47.397 E.01785
G1 X96.435 Y47.039 E.01717
G1 X97.207 Y46.603 E.02779
G1 X97.734 Y46.429 E.01742
G1 X98.317 Y46.337 E.01849
G1 X99.141 Y46.367 E.02585
G1 X99.701 Y46.498 E.01804
G1 X100.246 Y46.724 E.0185
G1 X100.81 Y47.098 E.02121
G1 X101.342 Y47.585 E.02262
G1 X101.815 Y48.286 E.02651
G1 X102.044 Y48.837 E.01872
G1 X102.207 Y49.646 E.02587
M204 P1000
G1 X102.564 Y49.882 F9000
G1 E-2.24 F4200
;WIPE_START
G1 F7200
G1 X102.178 Y50.496 E-.47167
G1 X102.048 Y51.057 E-.31911
G1 X101.964 Y51.259 E-.12122
;WIPE_END
G1 E-.048 F4200
G1 Z.4 F720
G1 X87.362 Y52.041 F9000
G1 Z.2 F720
G1 E3.2 F2400
M204 P800
;TYPE:Perimeter
G1 F1200
G1 X86.758 Y52.812 E.03071
G1 X86.348 Y53.162 E.0169
G1 X85.816 Y53.496 E.01969
G1 X85.217 Y53.749 E.0204
G1 X84.629 Y53.896 E.01898
G1 X84.004 Y53.952 E.01969
G1 X83.378 Y53.91 E.01968
G1 X82.766 Y53.77 E.01969
G1 X82.163 Y53.525 E.0204
G1 X81.412 Y53.034 E.02813
G1 X80.932 Y52.565 E.02104
G1 X80.571 Y52.079 E.01898
G1 X80.28 Y51.523 E.01969
G1 X80.079 Y50.928 E.01968
G1 X79.974 Y50.309 E.01969
G1 X79.967 Y49.681 E.01969
G1 X80.136 Y48.778 E.02882
G1 X80.385 Y48.153 E.02107
G1 X80.697 Y47.634 E.01898
G1 X81.099 Y47.152 E.01969
G1 X81.555 Y46.753 E.01901
G1 X82.102 Y46.407 E.02028
G1 X82.962 Y46.077 E.02889
G1 X83.625 Y45.964 E.02107
G1 X84.522 Y45.99 E.02813
G1 X85.154 Y46.131 E.02033
G1 X85.737 Y46.365 E.01969
G1 X86.507 Y46.867 E.02881
G1 X86.974 Y47.318 E.02036
G1 X87.547 Y48.176 E.03235
G1 X87.758 Y48.694 E.01754
G1 X87.942 Y49.572 E.02813
G1 X87.953 Y50.22 E.02033
G1 X87.858 Y50.754 E.01699
G1 X87.743 Y51.25 E.01597
G1 X87.398 Y51.993 E.02567
M204 P1000
G1 X87.069 Y51.811 F9000
M204 P800
;TYPE:External perimeter
G1 F1200
G1 X86.513 Y52.525 E.0284
G1 X86.103 Y52.875 E.0169
G1 X85.619 Y53.175 E.01784
G1 X85.074 Y53.4 E.0185
G1 X84.542 Y53.529 E.01717
G1 X83.974 Y53.576 E.01786
G1 X83.407 Y53.534 E.01783
G1 X82.854 Y53.404 E.01784
G1 X82.308 Y53.178 E.0185
G1 X81.622 Y52.721 E.02585
G1 X81.199 Y52.3 E.0187
G1 X80.876 Y51.858 E.01717
G1 X80.616 Y51.351 E.01786
G1 X80.438 Y50.812 E.01782
G1 X80.347 Y50.25 E.01784
G1 X80.344 Y49.681 E.01784
G1 X80.506 Y48.851 E.02651
G1 X80.733 Y48.299 E.01872
G1 X81.018 Y47.832 E.01717
G1 X81.386 Y47.397 E.01785
G1 X81.801 Y47.039 E.01717
G1 X82.3 Y46.727 E.01846
G1 X83.093 Y46.431 E.02653
G1 X83.682 Y46.337 E.01872
G1 X84.506 Y46.367 E.02585
G1 X85.066 Y46.498 E.01804
G1 X85.593 Y46.714 E.01784
G1 X86.298 Y47.18 E.0265
G1 X86.707 Y47.585 E.01805
G1 X87.18 Y48.286 E.02651
G1 X87.387 Y48.782 E.01685
G1 X87.572 Y49.645 E.02768
G1 X87.576 Y50.22 E.01804
G1 X87.414 Y51.05 E.0265
G1 X87.094 Y51.756 E.0243
M204 P1000
G1 X87.262 Y52.161 F9000
G1 E-2.24 F4200
;WIPE_START
G1 F7200
G1 X86.513 Y52.525 E-.53426
G1 X86.103 Y52.875 E-.29869
G1 X85.982 Y52.95 E-.07904
;WIPE_END
G1 E-.048 F4200
G1 Z.4 F720
G1 X75.957 Y27.732 F9000
G1 Z.2 F720
G1 E3.2 F2400
M204 P800
G1 F1200
G1 X76.065 Y28.138 E.01316
G1 X76.084 Y28.573 E.01368
G1 X76.009 Y29.003 E.01368
G1 X75.844 Y29.407 E.01368
G1 X75.574 Y29.786 E.01459
G1 X75.267 Y30.067 E.01304
G1 X74.743 Y30.344 E.01858
G1 X74.269 Y30.451 E.01524
G1 X70.246 Y30.462 E.12615
G1 X69.798 Y30.41 E.01413
G1 X69.378 Y30.261 E.01399
G1 X68.888 Y29.928 E.01856
G1 X68.485 Y29.415 E.02044
G1 X68.267 Y28.8 E.02047
G1 X68.258 Y28.147 E.02047
G1 X68.457 Y27.526 E.02044
G1 X68.843 Y27.001 E.02045
G1 X69.238 Y26.701 E.01555
;WIDTH:0.467648
G1 X69.504 Y26.569 E.0105
;WIDTH:0.515296
G1 X69.771 Y26.437 E.01168
;WIDTH:0.5264
G1 X70.245 Y26.373 E.01924
;WIDTH:0.524964
G1 X74.077 Y26.373 E.1536
G1 X74.539 Y26.434 E.01867
;WIDTH:0.51231
G1 X74.742 Y26.53 E.00875
;WIDTH:0.466155
G1 X74.944 Y26.627 E.00789
;WIDTH:0.419999
G1 X75.435 Y26.959 E.01858
G1 X75.752 Y27.329 E.01526
G1 X75.932 Y27.677 E.01232
M204 P1000
G1 X76.352 Y27.792 F9000
G1 E-2.24 F4200
;WIPE_START
G1 F7200
G1 X76.065 Y28.138 E-.26533
G1 X76.084 Y28.573 E-.24176
G1 X76.009 Y29.003 E-.24175
G1 X75.897 Y29.275 E-.16316
;WIPE_END
G1 E-.048 F4200
G1 Z.4 F720
G1 X92.704 Y107.118 F9000
G1 Z.2 F720
G1 E3.2 F2400
M204 P800
;TYPE:Perimeter
G1 F1200
G1 X93.382 Y107.702 E.02804
G1 X93.803 Y108.223 E.02103
G1 X94.13 Y108.785 E.02038
G1 X94.378 Y109.412 E.02114
G1 X94.521 Y110.024 E.01969
G1 X94.575 Y110.671 E.02037
G1 X94.529 Y111.343 E.02111
G1 X94.396 Y111.957 E.01969
G1 X94.166 Y112.565 E.02039
G1 X93.85 Y113.133 E.02038
G1 X93.241 Y113.868 E.02992
G1 X92.723 Y114.277 E.0207
G1 X92.332 Y114.544 E.01484
G1 X91.59 Y114.88 E.02554
G1 X90.941 Y115.049 E.02103
G1 X90.294 Y115.115 E.0204
G1 X89.22 Y115.011 E.03382
G1 X88.412 Y114.749 E.02664
G1 X87.805 Y114.404 E.02188
G1 X87.398 Y114.127 E.01544
G1 X87.016 Y113.784 E.01612
G1 X86.634 Y113.337 E.01843
G1 X86.365 Y112.883 E.01654
G1 X86.115 Y112.43 E.01624
G1 X85.832 Y111.46 E.03167
G1 X85.77 Y110.612 E.02664
G1 X85.9 Y109.647 E.03055
G1 X86.25 Y108.714 E.03125
G1 X86.584 Y108.158 E.02034
G1 X86.999 Y107.658 E.02037
G1 X87.733 Y107.048 E.02992
G1 X88.317 Y106.718 E.02103
G1 X89.221 Y106.414 E.02992
G1 X89.908 Y106.318 E.02175
G1 X90.839 Y106.362 E.02923
G1 X91.492 Y106.512 E.02098
G1 X92.097 Y106.753 E.02042
G1 X92.659 Y107.079 E.02038
M204 P1000
G1 X92.453 Y107.396 F9000
M204 P800
;TYPE:External perimeter
G1 F1200
G1 X93.133 Y107.985 E.02821
G1 X93.507 Y108.456 E.01886
G1 X93.803 Y108.972 E.01864
G1 X94.025 Y109.547 E.01935
G1 X94.153 Y110.106 E.01797
G1 X94.199 Y110.699 E.01865
G1 X94.153 Y111.314 E.01932
G1 X94.028 Y111.873 E.01797
G1 X93.815 Y112.429 E.01867
G1 X93.522 Y112.947 E.01864
G1 X92.953 Y113.624 E.02774
G1 X92.177 Y114.201 E.03032
G1 X91.433 Y114.538 E.02561
G1 X90.851 Y114.683 E.01879
G1 X90.259 Y114.74 E.01865
G1 X89.378 Y114.661 E.02774
G1 X88.529 Y114.39 E.02794
G1 X87.998 Y114.08 E.01928
G1 X87.647 Y113.844 E.01327
G1 X87.205 Y113.426 E.01906
G1 X86.901 Y113.063 E.01485
G1 X86.48 Y112.324 E.02666
G1 X86.247 Y111.575 E.02461
G1 X86.146 Y110.585 E.0312
G1 X86.273 Y109.703 E.02794
G1 X86.601 Y108.851 E.02861
G1 X86.904 Y108.357 E.01819
G1 X87.287 Y107.901 E.01864
G1 X87.971 Y107.34 E.02774
G1 X88.497 Y107.049 E.01886
