; generated by PrusaSlicer 2.6.0-alpha6+MacOS-x64 on 2023-04-15 at 22:02:17 UTC


;
;
; 

; external perimeters extrusion width = 0.45mm
; perimeters extrusion width = 0.45mm
; infill extrusion width = 0.45mm
; solid infill extrusion width = 0.45mm
; top infill extrusion width = 0.40mm
; first layer extrusion width = 0.42mm

; external perimeters extrusion width = 0.45mm
; perimeters extrusion width = 0.45mm
; infill extrusion width = 0.45mm
; solid infill extrusion width = 0.45mm
; top infill extrusion width = 0.40mm
; first layer extrusion width = 0.42mm

M73 P0 R73
M73 C70
M73 Q0 S73
M73 D70
M201 X1000 Y1000 Z200 E5000 ; sets maximum accelerations, mm/sec^2
M203 X200 Y200 Z12 E120 ; sets maximum feedrates, mm / sec
M204 S1250 T1250 ; sets acceleration (S) and retract acceleration (R), mm/sec^2
M205 X8.00 Y8.00 Z0.40 E4.50 ; sets the jerk limits, mm/sec
M205 S0 T0 ; sets the minimum extruding and travel feed rate, mm/sec
;TYPE:Custom
M862.3 P "MK3S" ; printer model check
M862.1 P0.4 ; nozzle diameter check
M115 U3.12.2 ; tell printer latest fw version
G90 ; use absolute coordinates
M83 ; extruder relative mode
M104 S220 ; set extruder temp
M140 S65 ; set bed temp
M190 S65 ; wait for bed temp
M109 S220 ; wait for extruder temp
G28 W ; home all without mesh bed level
G80 ; mesh bed leveling

G1 Z0.2 F720
G1 Y-3 F1000 ; go outside print area
G92 E0
G1 X60 E9 F1000 ; intro line
G1 X100 E12.5 F1000 ; intro line

G92 E0
M221 S95

; Don't change E values below. Excessive value can damage the printer.
M907 E430 ; set extruder motor current
G21 ; set units to millimeters
G90 ; use absolute coordinates
M83 ; use relative distances for extrusion
M900 K0.05 ; Filament gcode LA 1.5
M900 K30 ; Filament gcode LA 1.0
M107
;LAYER_CHANGE
;Z:0.2
;HEIGHT:0.2
;BEFORE_LAYER_CHANGE
G92 E0.0
;0.2


G1 E-.8 F2100
M73 P0 R72
G1 Z.4 F720
;AFTER_LAYER_CHANGE
;0.2
G1 X90.515 Y42.426 F10800
G1 Z.2 F720
G1 E.8 F2100
M204 S800
;TYPE:Skirt/Brim
;WIDTH:0.42
G1 F1200
G1 X92.685 Y37.797 E.1603
G1 X93.157 Y37.125 E.02575
G1 X96.144 Y34.137 E.13247
G1 X97.825 Y33.441 E.05705
G1 X152.175 Y33.441 E1.70411
G1 X153.856 Y34.137 E.05705
G1 X156.843 Y37.125 E.13247
G1 X157.54 Y38.805 E.05703
G1 X157.54 Y171.195 E4.151
G1 X156.843 Y172.875 E.05703
G1 X153.856 Y175.863 E.13247
G1 X152.175 Y176.559 E.05705
G1 X97.825 Y176.559 E1.70411
G1 X52.66 Y168.409 E1.43899
G1 X51.403 Y167.751 E.04449
G1 X48.416 Y164.764 E.13245
G1 X47.72 Y163.083 E.05705
G1 X47.72 Y134.258 E.90379
G1 X47.944 Y133.249 E.03241
G1 X90.489 Y42.481 E3.14309
M204 S1000
;WIPE_START
G1 F8640
M73 C69
G1 X91.96 Y39.344 E-.8
;WIPE_END
G1 Z.6 F720
G1 X95.124 Y42.481 F10800
G1 Z.2 F720
G1 E.8 F2100
M204 S800
G1 F1200
G1 X95.124 Y40.559 E.06026
G1 X95.427 Y39.204 E.04353
G1 X96.096 Y37.995 E.04332
G1 X97.027 Y37.07 E.04115
G1 X98.178 Y36.427 E.04134
G1 X99.519 Y36.104 E.04325
G1 X150.452 Y36.108 E1.59697
G1 X151.472 Y36.302 E.03255
G1 X152.45 Y36.718 E.03332
G1 X153.575 Y37.613 E.04507
G1 X154.468 Y38.951 E.05044
G1 X154.876 Y40.497 E.05013
G1 X154.876 Y169.441 E4.04295
G1 X154.573 Y170.796 E.04353
M73 Q0 S72
G1 X153.904 Y172.005 E.04332
G1 X152.973 Y172.93 E.04115
G1 X151.822 Y173.572 E.04132
G1 X150.481 Y173.896 E.04326
G1 X99.578 Y173.896 E1.59603
G1 X98.224 Y173.593 E.0435
G1 X97.014 Y172.923 E.04337
G1 X96.089 Y171.992 E.04115
G1 X95.447 Y170.842 E.0413
G1 X95.124 Y169.5 E.04328
G1 X95.124 Y42.541 E3.98071
M204 S1000
G1 X95.501 Y42.541 F10800
M204 S800
M73 P1 R72
M73 Q1 S72
G1 F1200
G1 X95.501 Y40.58 E.06149
G1 X95.788 Y39.315 E.04067
G1 X96.412 Y38.204 E.03995
G1 X97.273 Y37.357 E.03787
G1 X98.292 Y36.788 E.03659
G1 X99.542 Y36.481 E.04036
G1 X150.434 Y36.485 E1.59568
G1 X151.38 Y36.668 E.03021
G1 X152.277 Y37.053 E.03061
G1 X153.316 Y37.889 E.04181
G1 X154.112 Y39.079 E.04489
G1 X154.499 Y40.522 E.04684
G1 X154.499 Y169.42 E4.04151
G1 X154.212 Y170.685 E.04067
M73 D69
G1 X153.588 Y171.796 E.03995
G1 X152.727 Y172.643 E.03787
G1 X151.708 Y173.212 E.03659
G1 X150.458 Y173.519 E.04036
G1 X99.6 Y173.519 E1.59462
G1 X98.334 Y173.231 E.04071
G1 X97.223 Y172.608 E.03994
G1 X96.376 Y171.746 E.03789
G1 X95.807 Y170.727 E.03659
G1 X95.501 Y169.477 E.04035
G1 X95.501 Y42.601 E3.97811
M204 S1000
G1 X95.878 Y42.601 F10800
M204 S800
M73 P1 R71
G1 F1200
G1 X95.878 Y40.601 E.06271
G1 X96.131 Y39.473 E.03625
G1 X96.697 Y38.451 E.03663
G1 X97.482 Y37.672 E.03468
G1 X98.409 Y37.147 E.0334
G1 X99.566 Y36.859 E.03738
G1 X150.415 Y36.862 E1.59433
G1 X151.286 Y37.034 E.02784
G1 X152.103 Y37.389 E.02793
G1 X153.055 Y38.163 E.03847
G1 X153.78 Y39.261 E.04125
G1 X154.122 Y40.546 E.04169
G1 X154.122 Y169.399 E4.0401
G1 X153.869 Y170.527 E.03625
G1 X153.303 Y171.549 E.03663
G1 X152.518 Y172.328 E.03468
G1 X151.591 Y172.853 E.0334
G1 X150.434 Y173.141 E.03738
G1 X99.62 Y173.141 E1.59324
G1 X98.493 Y172.888 E.03622
G1 X97.471 Y172.323 E.03661
G1 X96.691 Y171.538 E.0347
G1 X96.166 Y170.61 E.03343
G1 X95.878 Y169.454 E.03735
G1 X95.878 Y42.661 E3.97551
M204 S1000
G1 X96.255 Y42.661 F10800
M204 S800
G1 F1200
G1 X96.255 Y40.622 E.06393
G1 X96.493 Y39.585 E.03336
M73 P2 R71
G1 X97.012 Y38.66 E.03326
G1 X97.727 Y37.958 E.03142
G1 X98.527 Y37.506 E.02881
G1 X99.59 Y37.236 E.03439
G1 X150.396 Y37.239 E1.59299
G1 X151.191 Y37.399 E.02543
M73 C68
M73 Q2 S72
G1 X151.926 Y37.723 E.02519
G1 X152.793 Y38.435 E.03518
G1 X153.447 Y39.441 E.03762
G1 X153.745 Y40.57 E.03661
G1 X153.745 Y169.378 E4.03868
G1 X153.507 Y170.415 E.03336
M73 Q2 S71
G1 X152.988 Y171.34 E.03326
G1 X152.273 Y172.042 E.03142
G1 X151.473 Y172.494 E.02881
G1 X150.41 Y172.764 E.03439
G1 X99.642 Y172.764 E1.59179
G1 X98.604 Y172.527 E.03338
G1 X97.68 Y172.008 E.03323
G1 X96.978 Y171.292 E.03144
G1 X96.525 Y170.493 E.0288
G1 X96.255 Y169.43 E.03439
G1 X96.255 Y42.721 E3.97287
M204 S1000
G1 X96.632 Y42.721 F10800
M204 S800
G1 F1200
G1 X96.632 Y40.643 E.06515
G1 X96.836 Y39.743 E.02893
G1 X97.297 Y38.908 E.02991
G1 X97.938 Y38.272 E.02831
G1 X98.647 Y37.864 E.02565
G1 X99.614 Y37.613 E.03132
G1 X150.377 Y37.616 E1.59164
G1 X151.058 Y37.753 E.02178
G1 X151.75 Y38.057 E.0237
G1 X152.529 Y38.706 E.03179
G1 X153.091 Y39.568 E.03226
G1 X153.368 Y40.596 E.03338
G1 X153.368 Y169.357 E4.03721
G1 X153.164 Y170.257 E.02893
G1 X152.703 Y171.092 E.02991
G1 X152.062 Y171.728 E.02831
G1 X151.353 Y172.136 E.02565
G1 X150.386 Y172.387 E.03132
G1 X99.663 Y172.387 E1.59038
G1 X98.763 Y172.184 E.02893
M73 D68
G1 X97.928 Y171.722 E.02992
G1 X97.292 Y171.082 E.02829
G1 X96.884 Y170.372 E.02568
G1 X96.632 Y169.405 E.03133
G1 X96.632 Y42.781 E3.97021
M204 S1000
G1 X97.009 Y42.781 F10800
M204 S800
M73 P2 R70
G1 F1200
G1 X97.009 Y40.665 E.06635
G1 X97.197 Y39.855 E.02607
G1 X97.612 Y39.118 E.02652
G1 X98.184 Y38.559 E.02508
G1 X98.769 Y38.222 E.02117
G1 X99.639 Y37.99 E.02823
G1 X150.357 Y37.993 E1.59023
G1 X150.961 Y38.118 E.01934
G1 X151.571 Y38.39 E.02094
G1 X152.264 Y38.975 E.02844
G1 X152.758 Y39.746 E.02871
G1 X152.991 Y40.62 E.02836
G1 X152.991 Y169.335 E4.03577
G1 X152.803 Y170.145 E.02607
M73 P3 R70
M73 Q3 S71
G1 X152.388 Y170.882 E.02652
G1 X151.816 Y171.441 E.02508
G1 X151.231 Y171.778 E.02117
G1 X150.361 Y172.01 E.02823
G1 X99.685 Y172.01 E1.58891
G1 X98.875 Y171.823 E.02607
G1 X98.137 Y171.408 E.02655
G1 X97.578 Y170.836 E.02508
G1 X97.241 Y170.251 E.02117
G1 X97.009 Y169.38 E.02826
G1 X97.009 Y42.841 E3.96754
M204 S1000
G1 X97.386 Y42.841 F10800
M204 S800
G1 F1200
G1 X97.386 Y40.686 E.06757
G1 X97.54 Y40.013 E.02165
G1 X97.897 Y39.365 E.0232
G1 X98.396 Y38.871 E.02202
G1 X98.894 Y38.578 E.01812
G1 X99.665 Y38.367 E.02506
G1 X150.337 Y38.37 E1.58878
G1 X150.862 Y38.482 E.01683
G1 X151.389 Y38.722 E.01816
G1 X151.997 Y39.243 E.02511
G1 X152.402 Y39.874 E.02351
G1 X152.614 Y40.646 E.0251
G1 X152.614 Y169.314 E4.03429
G1 X152.46 Y169.987 E.02165
M73 C67
G1 X152.103 Y170.635 E.0232
G1 X151.604 Y171.129 E.02202
G1 X151.106 Y171.422 E.01812
G1 X150.335 Y171.633 E.02506
G1 X99.705 Y171.633 E1.58747
G1 X99.033 Y171.48 E.02161
M73 Q3 S70
G1 X98.385 Y171.122 E.02321
G1 X97.891 Y170.623 E.02202
G1 X97.598 Y170.125 E.01812
G1 X97.386 Y169.354 E.02507
G1 X97.386 Y42.901 E3.96485
M204 S1000
G1 X97.763 Y42.901 F10800
M204 S800
G1 F1200
G1 X97.763 Y40.707 E.06879
G1 X97.885 Y40.168 E.01733
G1 X98.185 Y39.611 E.01984
G1 X98.612 Y39.181 E.019
G1 X99.023 Y38.934 E.01503
G1 X99.692 Y38.744 E.02181
G1 X150.316 Y38.748 E1.58728
G1 X150.759 Y38.845 E.01422
G1 X151.205 Y39.052 E.01542
G1 X151.729 Y39.509 E.0218
G1 X152.047 Y40.004 E.01845
G1 X152.237 Y40.673 E.02181
G1 X152.237 Y169.293 E4.03279
G1 X152.115 Y169.832 E.01733
G1 X151.815 Y170.389 E.01984
G1 X151.388 Y170.819 E.019
G1 X150.977 Y171.066 E.01503
G1 X150.308 Y171.256 E.02181
G1 X99.726 Y171.256 E1.58596
G1 X99.188 Y171.135 E.01729
G1 X98.63 Y170.835 E.01986
G1 X98.201 Y170.407 E.019
G1 X97.953 Y169.997 E.01502
G1 X97.763 Y169.327 E.02184
G1 X97.763 Y42.961 E3.96212
M204 S1000
G1 X98.141 Y42.961 F10800
M204 S800
M73 P4 R70
M73 Q4 S70
M73 D67
G1 F1200
G1 X98.141 Y40.727 E.07005
G1 X98.231 Y40.32 E.01307
G1 X98.475 Y39.853 E.01652
G1 X98.832 Y39.488 E.01601
G1 X99.156 Y39.287 E.01195
G1 X99.72 Y39.121 E.01843
G1 X150.294 Y39.125 E1.58571
G1 X150.653 Y39.208 E.01155
G1 X151.018 Y39.38 E.01265
G1 X151.458 Y39.772 E.01848
G1 X151.694 Y40.137 E.01363
G1 X151.859 Y40.701 E.01843
G1 X151.859 Y169.273 E4.03128
G1 X151.769 Y169.68 E.01307
M73 P4 R69
G1 X151.525 Y170.147 E.01652
G1 X151.168 Y170.512 E.01601
G1 X150.844 Y170.713 E.01195
G1 X150.28 Y170.879 E.01843
G1 X99.746 Y170.879 E1.58446
G1 X99.339 Y170.789 E.01307
G1 X98.873 Y170.545 E.01649
G1 X98.508 Y170.188 E.01601
G1 X98.307 Y169.864 E.01195
G1 X98.141 Y169.299 E.01846
G1 X98.141 Y43.021 E3.95936
M204 S1000
G1 X98.518 Y43.021 F10800
M204 S800
G1 F1200
G1 X98.518 Y40.747 E.0713
G1 X98.578 Y40.467 E.00898
G1 X98.768 Y40.092 E.01318
G1 X99.056 Y39.792 E.01304
G1 X99.294 Y39.639 E.00887
G1 X99.75 Y39.498 E.01497
G1 X150.272 Y39.502 E1.58408
G1 X150.51 Y39.557 E.00766
G1 X150.83 Y39.708 E.01109
G1 X151.185 Y40.033 E.01509
G1 X151.342 Y40.275 E.00904
G1 X151.482 Y40.73 E.01493
G1 X151.482 Y169.253 E4.02975
G1 X151.422 Y169.533 E.00898
G1 X151.232 Y169.908 E.01318
G1 X150.944 Y170.208 E.01304
G1 X150.706 Y170.361 E.00887
G1 X150.25 Y170.502 E.01497
G1 X99.766 Y170.502 E1.58289
G1 X99.486 Y170.441 E.00899
M73 C66
G1 X99.112 Y170.252 E.01314
G1 X98.811 Y169.963 E.01308
G1 X98.658 Y169.726 E.00884
G1 X98.518 Y169.27 E.01496
G1 X98.518 Y43.081 E3.95657
M204 S1000
G1 X98.895 Y43.081 F10800
M204 S800
M73 Q4 S69
G1 F1200
G1 X98.895 Y40.765 E.07262
G1 X98.926 Y40.614 E.00483
G1 X99.09 Y40.291 E.01136
G1 X99.308 Y40.073 E.00967
G1 X99.437 Y39.988 E.00484
G1 X99.781 Y39.875 E.01135
G1 X150.25 Y39.879 E1.58242
G1 X150.367 Y39.906 E.00376
M73 P5 R69
M73 Q5 S69
G1 X150.641 Y40.036 E.00951
G1 X150.909 Y40.291 E.0116
G1 X150.992 Y40.418 E.00476
G1 X151.105 Y40.762 E.01135
G1 X151.105 Y169.235 E4.02818
G1 X151.074 Y169.386 E.00483
G1 X150.91 Y169.709 E.01136
G1 X150.692 Y169.927 E.00967
G1 X150.563 Y170.012 E.00484
G1 X150.219 Y170.125 E.01135
G1 X99.785 Y170.125 E1.58132
G1 X99.634 Y170.093 E.00484
G1 X99.31 Y169.93 E.01137
G1 X99.092 Y169.712 E.00967
G1 X99.008 Y169.582 E.00485
G1 X98.895 Y169.238 E.01135
G1 X98.895 Y43.141 E3.95368
M204 S1000
G1 X99.272 Y43.141 F10800
M204 S800
G1 F1200
G1 X99.272 Y40.783 E.07393
G1 X99.381 Y40.533 E.00855
G1 X99.562 Y40.352 E.00803
G1 X99.817 Y40.252 E.00859
G1 X150.198 Y40.252 E1.57966
G1 X150.448 Y40.362 E.00856
M73 D66
G1 X150.647 Y40.57 E.00903
G1 X150.728 Y40.797 E.00756
G1 X150.728 Y169.217 E4.02652
G1 X150.619 Y169.467 E.00855
M73 P5 R68
G1 X150.411 Y169.666 E.00903
G1 X150.183 Y169.748 E.0076
G1 X99.802 Y169.748 E1.57966
G1 X99.552 Y169.638 E.00856
G1 X99.353 Y169.43 E.00903
G1 X99.272 Y169.203 E.00756
G1 X99.272 Y43.201 E3.9507
M204 S1000
G1 X99.649 Y43.201 F10800
M204 S800
G1 F1200
G1 X99.649 Y40.839 E.07406
G1 X99.678 Y40.77 E.00235
G1 X99.789 Y40.658 E.00494
G1 X99.858 Y40.629 E.00235
G1 X150.142 Y40.629 E1.57662
G1 X150.211 Y40.658 E.00235
G1 X150.322 Y40.77 E.00494
G1 X150.351 Y40.839 E.00235
G1 X150.351 Y169.161 E4.02345
G1 X150.322 Y169.23 E.00235
M73 P6 R68
G1 X150.211 Y169.342 E.00494
G1 X150.142 Y169.371 E.00235
G1 X99.858 Y169.371 E1.57662
G1 X99.789 Y169.342 E.00235
M73 Q6 S69
G1 X99.678 Y169.23 E.00494
G1 X99.649 Y169.161 E.00235
G1 X99.649 Y43.261 E3.94751
M204 S1000
;WIPE_START
G1 F8640
M73 C65
G1 X99.649 Y40.839 E-.55925
G1 X99.678 Y40.77 E-.01728
G1 X99.789 Y40.658 E-.03641
G1 X99.858 Y40.629 E-.01728
G1 X100.593 Y40.629 E-.16978
;WIPE_END
G1 Z.6 F720
G1 X81.206 Y131.754 F10800
G1 Z.2 F720
G1 E.8 F2100
M204 S800
G1 F1200
G1 X82.185 Y132.17 E.03335
G1 X83.309 Y133.066 E.04507
G1 X84.202 Y134.404 E.05044
G1 X84.61 Y135.949 E.0501
G1 X84.61 Y161.39 E.79768
G1 X84.23 Y162.875 E.04806
M73 Q6 S68
G1 X83.372 Y164.211 E.04978
G1 X82.796 Y164.745 E.02463
G1 X82.192 Y165.173 E.02321
G1 X80.243 Y165.784 E.06404
G1 X54.777 Y165.784 E.79847
G1 X53.292 Y165.403 E.04807
G1 X51.956 Y164.545 E.04978
G1 X51.422 Y163.969 E.02463
G1 X50.994 Y163.366 E.02319
G1 X50.383 Y161.417 E.06404
G1 X50.383 Y135.95 E.7985
G1 X50.764 Y134.466 E.04804
G1 X51.622 Y133.129 E.04981
G1 X52.198 Y132.596 E.02461
G1 X52.801 Y132.168 E.02319
G1 X54.751 Y131.557 E.06407
G1 X80.186 Y131.56 E.7975
G1 X81.147 Y131.743 E.03067
M204 S1000
G1 X81.076 Y132.113 F10800
M204 S800
G1 F1200
G1 X82.011 Y132.506 E.0318
G1 X83.05 Y133.341 E.04179
G1 X83.846 Y134.532 E.04492
G1 X84.233 Y135.974 E.04681
G1 X84.233 Y161.366 E.79615
G1 X83.873 Y162.75 E.04484
G1 X83.098 Y163.951 E.04482
G1 X82.549 Y164.459 E.02345
G1 X81.999 Y164.848 E.02112
G1 X80.214 Y165.407 E.05865
G1 X54.801 Y165.407 E.79681
G1 X53.417 Y165.046 E.04485
G1 X52.216 Y164.272 E.0448
G1 X51.708 Y163.722 E.02348
G1 X51.319 Y163.172 E.02112
G1 X50.76 Y161.388 E.05862
G1 X50.76 Y135.975 E.79681
G1 X51.121 Y134.59 E.04488
G1 X51.895 Y133.39 E.04477
G1 X52.445 Y132.881 E.0235
G1 X52.994 Y132.493 E.02108
G1 X54.779 Y131.934 E.05865
G1 X80.168 Y131.937 E.79605
G1 X81.017 Y132.102 E.02712
M204 S1000
G1 X80.944 Y132.471 F10800
M204 S800
G1 F1200
G1 X81.021 Y132.486 E.00246
G1 X81.837 Y132.841 E.0279
G1 X82.789 Y133.615 E.03847
G1 X83.514 Y134.713 E.04125
G1 X83.856 Y135.998 E.04169
G1 X83.856 Y161.342 E.79464
G1 X83.539 Y162.573 E.03986
G1 X82.824 Y163.691 E.04161
G1 X82.302 Y164.174 E.0223
G1 X81.806 Y164.522 E.019
G1 X80.186 Y165.03 E.05323
G1 X54.825 Y165.03 E.79518
G1 X53.594 Y164.712 E.03986
G1 X52.476 Y163.997 E.04161
G1 X51.993 Y163.476 E.02228
G1 X51.645 Y162.98 E.019
G1 X51.137 Y161.359 E.05326
G1 X51.137 Y135.998 E.79518
G1 X51.455 Y134.768 E.03983
G1 X52.17 Y133.65 E.04161
G1 X52.691 Y133.166 E.0223
G1 X53.187 Y132.818 E.019
G1 X54.808 Y132.311 E.05325
G1 X80.149 Y132.315 E.79455
G1 X80.885 Y132.46 E.02352
M204 S1000
G1 X80.811 Y132.829 F10800
M204 S800
G1 F1200
G1 X80.925 Y132.852 E.00365
G1 X81.66 Y133.175 E.02517
G1 X82.527 Y133.887 E.03518
G1 X83.181 Y134.893 E.03762
G1 X83.479 Y136.023 E.03664
G1 X83.479 Y161.317 E.79308
G1 X83.182 Y162.448 E.03666
G1 X82.55 Y163.43 E.03662
G1 X82.056 Y163.888 E.02112
G1 X81.614 Y164.196 E.01689
G1 X80.157 Y164.652 E.04787
G1 X54.85 Y164.652 E.79348
G1 X53.719 Y164.355 E.03666
G1 X52.737 Y163.724 E.0366
G1 X52.279 Y163.229 E.02114
G1 X51.971 Y162.788 E.01687
G1 X51.514 Y161.331 E.04788
G1 X51.514 Y136.023 E.79351
G1 X51.812 Y134.893 E.03664
M73 D65
G1 X52.443 Y133.91 E.03662
G1 X52.938 Y133.452 E.02114
G1 X53.379 Y133.144 E.01687
G1 X54.837 Y132.688 E.0479
G1 X80.13 Y132.692 E.79304
G1 X80.752 Y132.817 E.01989
M204 S1000
G1 X80.679 Y133.182 F10800
M204 S800
G1 F1200
G1 X80.792 Y133.205 E.00362
G1 X81.484 Y133.509 E.0237
G1 X82.264 Y134.158 E.03181
G1 X82.825 Y135.02 E.03225
G1 X83.102 Y136.048 E.03338
G1 X83.102 Y161.293 E.79154
G1 X82.847 Y162.271 E.03169
G1 X82.276 Y163.17 E.03339
G1 X81.809 Y163.602 E.01995
G1 X81.423 Y163.87 E.01473
G1 X80.128 Y164.275 E.04254
G1 X54.874 Y164.275 E.79182
G1 X53.896 Y164.021 E.03168
G1 X52.997 Y163.449 E.03341
G1 X52.564 Y162.983 E.01995
G1 X52.297 Y162.597 E.01472
G1 X51.892 Y161.302 E.04254
G1 X51.892 Y136.047 E.79185
G1 X52.146 Y135.07 E.03165
