; generated by PrusaSlicer 2.6.0-alpha6+MacOS-x64 on 2023-04-16 at 16:29:58 UTC


;
;
; 

; external perimeters extrusion width = 0.45mm
; perimeters extrusion width = 0.45mm
; infill extrusion width = 0.45mm
; solid infill extrusion width = 0.45mm
; top infill extrusion width = 0.40mm
; first layer extrusion width = 0.42mm

; external perimeters extrusion width = 0.45mm
; perimeters extrusion width = 0.45mm
; infill extrusion width = 0.45mm
; solid infill extrusion width = 0.45mm
; top infill extrusion width = 0.40mm
; first layer extrusion width = 0.42mm

M73 P0 R64
M73 C61
M73 Q0 S65
M73 D62
M201 X1000 Y1000 Z200 E5000 ; sets maximum accelerations, mm/sec^2
M203 X200 Y200 Z12 E120 ; sets maximum feedrates, mm / sec
M204 S1250 T1250 ; sets acceleration (S) and retract acceleration (R), mm/sec^2
M205 X8.00 Y8.00 Z0.40 E4.50 ; sets the jerk limits, mm/sec
M205 S0 T0 ; sets the minimum extruding and travel feed rate, mm/sec
;TYPE:Custom
M862.3 P "MK3S" ; printer model check
M862.1 P0.4 ; nozzle diameter check
M115 U3.12.2 ; tell printer latest fw version
G90 ; use absolute coordinates
M83 ; extruder relative mode
M104 S220 ; set extruder temp
M140 S65 ; set bed temp
M190 S65 ; wait for bed temp
M109 S220 ; wait for extruder temp
G28 W ; home all without mesh bed level
G80 ; mesh bed leveling

G1 Z0.2 F720
G1 Y-3 F1000 ; go outside print area
G92 E0
G1 X60 E9 F1000 ; intro line
G1 X100 E12.5 F1000 ; intro line

G92 E0
M221 S95

; Don't change E values below. Excessive value can damage the printer.
M907 E430 ; set extruder motor current
G21 ; set units to millimeters
G90 ; use absolute coordinates
M83 ; use relative distances for extrusion
M900 K0.05 ; Filament gcode LA 1.5
M900 K30 ; Filament gcode LA 1.0
M107
;LAYER_CHANGE
;Z:0.2
;HEIGHT:0.2
;BEFORE_LAYER_CHANGE
G92 E0.0
;0.2


G1 E-.8 F2100
G1 Z.4 F720
;AFTER_LAYER_CHANGE
;0.2
G1 X87.392 Y54.45 F10800
G1 Z.2 F720
G1 E.8 F2100
M204 S800
;TYPE:Skirt/Brim
;WIDTH:0.42
G1 F1200
G1 X97.922 Y37.548 E.62438
G1 X98.259 Y37.125 E.01696
G1 X101.247 Y34.137 E.13249
G1 X102.927 Y33.441 E.05702
G1 X147.073 Y33.441 E1.38417
G1 X148.753 Y34.137 E.05702
G1 X151.741 Y37.125 E.13249
G1 X152.437 Y38.805 E.05702
G1 X152.437 Y171.195 E4.151
G1 X151.741 Y172.875 E.05702
M73 Q0 S64
M73 D61
G1 X148.753 Y175.863 E.13249
G1 X147.073 Y176.559 E.05702
G1 X102.927 Y176.559 E1.38417
G1 X101.368 Y175.976 E.05219
G1 X59.516 Y139.583 E1.73897
G1 X56.408 Y136.482 E.13766
G1 X55.711 Y134.801 E.05706
G1 X55.711 Y105.976 E.90379
G1 X56.071 Y104.719 E.041
G1 X87.36 Y54.501 E1.85517
M204 S1000
;WIPE_START
G1 F8640
G1 X89.192 Y51.56 E-.8
;WIPE_END
G1 Z.6 F720
G1 X100.226 Y54.501 F10800
G1 Z.2 F720
G1 E.8 F2100
M204 S800
G1 F1200
G1 X100.226 Y40.604 E.43573
G1 X100.381 Y39.642 E.03055
G1 X100.974 Y38.316 E.04554
G1 X101.955 Y37.212 E.04631
G1 X103.207 Y36.455 E.04587
G1 X104.622 Y36.104 E.04571
G1 X145.349 Y36.108 E1.27697
G1 X146.37 Y36.302 E.03259
G1 X147.348 Y36.718 E.03332
G1 X148.472 Y37.613 E.04505
G1 X149.365 Y38.951 E.05044
G1 X149.774 Y40.497 E.05014
G1 X149.774 Y169.396 E4.04154
G1 X149.619 Y170.358 E.03055
G1 X149.026 Y171.684 E.04554
G1 X148.045 Y172.788 E.04631
G1 X146.793 Y173.545 E.04587
G1 X145.378 Y173.896 E.04571
G1 X104.726 Y173.896 E1.27461
G1 X103.764 Y173.741 E.03055
M73 P1 R64
M73 Q1 S64
G1 X102.438 Y173.148 E.04554
G1 X101.334 Y172.167 E.04631
G1 X100.577 Y170.915 E.04587
G1 X100.226 Y169.5 E.04571
G1 X100.226 Y54.561 E3.60383
M204 S1000
G1 X100.604 Y54.561 F10800
M204 S800
G1 F1200
G1 X100.604 Y40.619 E.43714
G1 X100.749 Y39.728 E.0283
G1 X101.306 Y38.498 E.04234
G1 X102.176 Y37.518 E.04109
G1 X103.328 Y36.813 E.04235
G1 X104.646 Y36.481 E.04262
G1 X145.331 Y36.485 E1.27565
G1 X146.277 Y36.668 E.03021
G1 X147.175 Y37.053 E.03063
G1 X148.214 Y37.889 E.04181
G1 X149.009 Y39.079 E.04487
G1 X149.396 Y40.522 E.04684
G1 X149.396 Y169.381 E4.04028
G1 X149.251 Y170.272 E.0283
G1 X148.694 Y171.502 E.04234
G1 X147.824 Y172.482 E.04109
G1 X146.672 Y173.187 E.04235
G1 X145.355 Y173.519 E.04259
M73 C60
G1 X104.742 Y173.519 E1.27339
G1 X103.85 Y173.373 E.02834
M73 P1 R63
G1 X102.62 Y172.816 E.04234
G1 X101.641 Y171.946 E.04107
G1 X100.935 Y170.794 E.04236
G1 X100.604 Y169.477 E.04258
G1 X100.604 Y54.621 E3.60123
M204 S1000
G1 X100.981 Y54.621 F10800
M204 S800
G1 F1200
G1 X100.981 Y40.635 E.43852
G1 X101.117 Y39.815 E.02606
G1 X101.636 Y38.682 E.03907
G1 X102.437 Y37.792 E.03754
G1 X103.498 Y37.151 E.03887
G1 X104.668 Y36.859 E.03781
G1 X145.312 Y36.862 E1.27436
G1 X146.184 Y37.034 E.02787
G1 X147 Y37.389 E.0279
G1 X147.953 Y38.163 E.03849
G1 X148.678 Y39.261 E.04125
G1 X149.019 Y40.546 E.04168
G1 X149.019 Y169.365 E4.03903
G1 X148.883 Y170.185 E.02606
M73 D60
G1 X148.364 Y171.318 E.03907
G1 X147.563 Y172.208 E.03754
G1 X146.502 Y172.849 E.03887
G1 X145.332 Y173.141 E.03781
G1 X104.757 Y173.141 E1.2722
G1 X103.937 Y173.005 E.02606
M73 Q1 S63
G1 X102.804 Y172.486 E.03907
G1 X101.914 Y171.685 E.03754
G1 X101.273 Y170.624 E.03887
G1 X100.981 Y169.454 E.03781
G1 X100.981 Y54.681 E3.59863
M204 S1000
G1 X101.358 Y54.681 F10800
M204 S800
M73 P2 R63
M73 Q2 S63
G1 F1200
G1 X101.358 Y40.651 E.4399
G1 X101.485 Y39.903 E.02379
G1 X101.937 Y38.91 E.03421
G1 X102.658 Y38.098 E.03405
G1 X103.62 Y37.509 E.03537
G1 X104.692 Y37.236 E.03468
G1 X145.293 Y37.239 E1.27302
G1 X146.089 Y37.399 E.02546
G1 X146.824 Y37.723 E.02519
G1 X147.69 Y38.435 E.03515
G1 X148.345 Y39.441 E.03764
G1 X148.642 Y40.57 E.0366
G1 X148.642 Y169.349 E4.03778
G1 X148.515 Y170.097 E.02379
G1 X148.063 Y171.09 E.03421
G1 X147.342 Y171.902 E.03405
G1 X146.38 Y172.491 E.03537
G1 X145.308 Y172.764 E.03468
G1 X104.773 Y172.764 E1.27095
G1 X104.025 Y172.637 E.02379
G1 X103.032 Y172.185 E.03421
G1 X102.22 Y171.464 E.03405
G1 X101.631 Y170.502 E.03537
G1 X101.358 Y169.43 E.03468
G1 X101.358 Y54.741 E3.59599
M204 S1000
G1 X101.735 Y54.741 F10800
M204 S800
G1 F1200
G1 X101.735 Y40.666 E.44131
G1 X101.838 Y40.036 E.02002
G1 X102.268 Y39.094 E.03247
G1 X102.92 Y38.371 E.03053
G1 X103.742 Y37.866 E.03025
G1 X104.717 Y37.613 E.03158
G1 X145.275 Y37.616 E1.27167
G1 X145.956 Y37.753 E.02178
G1 X146.647 Y38.057 E.02367
G1 X147.427 Y38.706 E.03181
G1 X147.989 Y39.568 E.03226
G1 X148.265 Y40.596 E.03337
G1 X148.265 Y169.334 E4.03649
G1 X148.162 Y169.964 E.02002
G1 X147.732 Y170.906 E.03247
G1 X147.08 Y171.629 E.03053
G1 X146.258 Y172.134 E.03025
G1 X145.283 Y172.387 E.03158
G1 X104.788 Y172.387 E1.26969
G1 X104.158 Y172.284 E.02002
G1 X103.216 Y171.854 E.03247
G1 X102.493 Y171.202 E.03053
G1 X101.988 Y170.38 E.03025
G1 X101.735 Y169.405 E.03158
G1 X101.735 Y54.801 E3.59333
M204 S1000
G1 X102.112 Y54.801 F10800
M204 S800
M73 P3 R62
M73 C59
M73 Q3 S63
G1 F1200
G1 X102.112 Y40.682 E.44269
G1 X102.206 Y40.123 E.01777
G1 X102.569 Y39.322 E.02757
G1 X103.144 Y38.676 E.02712
G1 X103.868 Y38.223 E.02678
G1 X104.742 Y37.99 E.02836
G1 X145.255 Y37.993 E1.27026
G1 X145.859 Y38.118 E.01934
G1 X146.468 Y38.39 E.02091
G1 X147.161 Y38.975 E.02844
G1 X147.655 Y39.746 E.02871
G1 X147.888 Y40.62 E.02836
G1 X147.888 Y169.318 E4.03524
G1 X147.794 Y169.877 E.01777
G1 X147.431 Y170.678 E.02757
G1 X146.856 Y171.324 E.02712
G1 X146.132 Y171.777 E.02678
G1 X145.258 Y172.01 E.02836
G1 X104.804 Y172.01 E1.26841
G1 X104.245 Y171.916 E.01777
G1 X103.444 Y171.553 E.02757
G1 X102.798 Y170.978 E.02712
G1 X102.345 Y170.254 E.02678
G1 X102.112 Y169.38 E.02836
G1 X102.112 Y54.861 E3.59066
M204 S1000
G1 X102.489 Y54.861 F10800
M204 S800
M73 Q3 S62
M73 D59
G1 F1200
G1 X102.489 Y40.699 E.44404
G1 X102.573 Y40.213 E.01546
G1 X102.899 Y39.508 E.02435
G1 X103.405 Y38.948 E.02366
G1 X103.995 Y38.579 E.02182
G1 X104.768 Y38.367 E.02513
G1 X145.235 Y38.37 E1.26881
G1 X145.759 Y38.482 E.0168
G1 X146.287 Y38.722 E.01819
G1 X146.894 Y39.243 E.02508
G1 X147.299 Y39.874 E.02351
G1 X147.511 Y40.646 E.0251
G1 X147.511 Y169.301 E4.03389
G1 X147.427 Y169.787 E.01546
G1 X147.101 Y170.492 E.02435
G1 X146.595 Y171.052 E.02366
G1 X146.005 Y171.421 E.02182
G1 X145.232 Y171.633 E.02513
G1 X104.821 Y171.633 E1.26706
G1 X104.335 Y171.549 E.01546
G1 X103.63 Y171.223 E.02435
G1 X103.07 Y170.717 E.02366
G1 X102.701 Y170.127 E.02182
G1 X102.489 Y169.354 E.02513
G1 X102.489 Y54.921 E3.58797
M204 S1000
G1 X102.866 Y54.921 F10800
M204 S800
G1 F1200
G1 X102.866 Y40.714 E.44545
G1 X102.927 Y40.343 E.01179
G1 X103.201 Y39.735 E.02091
G1 X103.632 Y39.251 E.02032
G1 X104.126 Y38.933 E.01842
G1 X104.795 Y38.744 E.0218
G1 X145.213 Y38.748 E1.26728
G1 X145.657 Y38.845 E.01425
M73 P4 R62
M73 Q4 S62
G1 X146.103 Y39.052 E.01542
G1 X146.626 Y39.509 E.02178
G1 X146.945 Y40.004 E.01846
G1 X147.134 Y40.673 E.0218
G1 X147.134 Y169.286 E4.03257
G1 X147.073 Y169.657 E.01179
G1 X146.799 Y170.265 E.02091
G1 X146.368 Y170.749 E.02032
G1 X145.874 Y171.067 E.01842
G1 X145.205 Y171.256 E.0218
G1 X104.836 Y171.256 E1.26574
G1 X104.465 Y171.195 E.01179
G1 X103.857 Y170.921 E.02091
G1 X103.373 Y170.49 E.02032
G1 X103.055 Y169.996 E.01842
G1 X102.866 Y169.327 E.0218
G1 X102.866 Y54.981 E3.58524
M204 S1000
G1 X103.243 Y54.981 F10800
M204 S800
G1 F1200
G1 X103.243 Y40.731 E.4468
G1 X103.294 Y40.433 E.00948
G1 X103.53 Y39.921 E.01768
G1 X103.893 Y39.523 E.01689
G1 X104.259 Y39.287 E.01365
G1 X104.823 Y39.121 E.01843
G1 X145.191 Y39.125 E1.26571
G1 X145.551 Y39.208 E.01158
G1 X145.916 Y39.38 E.01265
G1 X146.356 Y39.772 E.01848
G1 X146.591 Y40.137 E.01361
G1 X146.757 Y40.701 E.01843
G1 X146.757 Y169.269 E4.03116
G1 X146.706 Y169.567 E.00948
M73 P4 R61
M73 C58
G1 X146.47 Y170.079 E.01768
G1 X146.107 Y170.477 E.01689
G1 X145.741 Y170.713 E.01365
G1 X145.177 Y170.879 E.01843
G1 X104.853 Y170.879 E1.26433
G1 X104.555 Y170.828 E.00948
G1 X104.043 Y170.592 E.01768
G1 X103.645 Y170.229 E.01689
G1 X103.409 Y169.863 E.01365
G1 X103.243 Y169.299 E.01843
G1 X103.243 Y55.041 E3.58248
M204 S1000
G1 X103.62 Y55.041 F10800
M204 S800
G1 F1200
G1 X103.62 Y40.745 E.44824
G1 X103.65 Y40.561 E.00585
G1 X103.83 Y40.151 E.01404
G1 X104.155 Y39.795 E.01511
G1 X104.397 Y39.639 E.00903
G1 X104.852 Y39.498 E.01494
G1 X145.169 Y39.502 E1.26411
G1 X145.408 Y39.557 E.00769
G1 X145.728 Y39.708 E.01109
G1 X146.083 Y40.033 E.01509
G1 X146.239 Y40.275 E.00903
G1 X146.38 Y40.73 E.01494
G1 X146.38 Y169.255 E4.02981
G1 X146.35 Y169.439 E.00585
M73 P5 R61
M73 Q5 S61
M73 D58
G1 X146.17 Y169.849 E.01404
G1 X145.845 Y170.205 E.01511
G1 X145.603 Y170.361 E.00903
G1 X145.148 Y170.502 E.01494
G1 X104.867 Y170.502 E1.26298
G1 X104.683 Y170.472 E.00585
G1 X104.274 Y170.292 E.01401
G1 X103.917 Y169.967 E.01514
G1 X103.761 Y169.725 E.00903
G1 X103.62 Y169.27 E.01494
G1 X103.62 Y55.101 E3.57969
M204 S1000
G1 X103.997 Y55.101 F10800
M204 S800
G1 F1200
G1 X103.997 Y40.762 E.44959
G1 X104.017 Y40.651 E.00354
G1 X104.159 Y40.339 E.01075
G1 X104.413 Y40.071 E.01158
G1 X104.54 Y39.988 E.00476
G1 X104.884 Y39.875 E.01135
G1 X145.147 Y39.879 E1.26242
G1 X145.264 Y39.906 E.00376
G1 X145.538 Y40.036 E.00951
G1 X145.807 Y40.291 E.01162
G1 X145.89 Y40.418 E.00476
G1 X146.003 Y40.762 E.01135
G1 X146.003 Y169.238 E4.02827
G1 X145.983 Y169.349 E.00354
G1 X145.841 Y169.661 E.01075
G1 X145.587 Y169.929 E.01158
G1 X145.46 Y170.012 E.00476
G1 X145.116 Y170.125 E.01135
G1 X104.884 Y170.125 E1.26145
G1 X104.773 Y170.106 E.00353
G1 X104.461 Y169.963 E.01076
G1 X104.193 Y169.709 E.01158
G1 X104.11 Y169.582 E.00476
G1 X103.997 Y169.238 E.01135
G1 X103.997 Y55.161 E3.5768
M204 S1000
G1 X104.374 Y55.161 F10800
M204 S800
G1 F1200
G1 X104.374 Y40.783 E.45081
G1 X104.484 Y40.533 E.00856
G1 X104.665 Y40.352 E.00803
G1 X104.919 Y40.252 E.00856
G1 X145.095 Y40.252 E1.25969
G1 X145.345 Y40.362 E.00856
G1 X145.526 Y40.543 E.00803
G1 X145.626 Y40.797 E.00856
G1 X145.626 Y169.217 E4.02652
G1 X145.516 Y169.467 E.00856
G1 X145.335 Y169.648 E.00803
G1 X145.081 Y169.748 E.00856
G1 X104.905 Y169.748 E1.25969
G1 X104.655 Y169.638 E.00856
M73 P6 R61
M73 Q6 S61
G1 X104.474 Y169.457 E.00803
G1 X104.374 Y169.203 E.00856
G1 X104.374 Y55.221 E3.57383
M204 S1000
G1 X104.751 Y55.221 F10800
M204 S800
M73 P6 R60
M73 C57
G1 F1200
G1 X104.751 Y40.839 E.45094
G1 X104.78 Y40.77 E.00235
G1 X104.892 Y40.658 E.00497
G1 X104.961 Y40.629 E.00235
G1 X145.039 Y40.629 E1.25662
G1 X145.108 Y40.658 E.00235
G1 X145.22 Y40.77 E.00497
G1 X145.249 Y40.839 E.00235
G1 X145.249 Y169.161 E4.02345
G1 X145.22 Y169.23 E.00235
G1 X145.108 Y169.342 E.00497
G1 X145.039 Y169.371 E.00235
G1 X104.961 Y169.371 E1.25662
G1 X104.892 Y169.342 E.00235
G1 X104.78 Y169.23 E.00497
G1 X104.751 Y169.161 E.00235
G1 X104.751 Y55.281 E3.57063
M204 S1000
;WIPE_START
G1 F8640
M73 Q6 S60
M73 D57
G1 X104.751 Y51.816 E-.8
;WIPE_END
G1 Z.6 F720
G1 X89.198 Y103.473 F10800
G1 Z.2 F720
G1 E.8 F2100
M204 S800
G1 F1200
G1 X90.176 Y103.888 E.03331
G1 X91.301 Y104.784 E.04509
G1 X92.194 Y106.122 E.05044
G1 X92.602 Y107.668 E.05013
G1 X92.602 Y133.109 E.79768
G1 X92.221 Y134.593 E.04804
G1 X91.363 Y135.93 E.04981
G1 X90.788 Y136.463 E.02458
G1 X90.184 Y136.891 E.02321
G1 X88.235 Y137.502 E.06404
G1 X62.769 Y137.502 E.79847
G1 X61.284 Y137.122 E.04806
G1 X59.947 Y136.264 E.04981
G1 X59.414 Y135.688 E.02461
G1 X58.986 Y135.084 E.02321
G1 X58.375 Y133.135 E.06404
G1 X58.375 Y107.669 E.79847
G1 X58.755 Y106.184 E.04806
G1 X59.614 Y104.848 E.0498
G1 X60.189 Y104.314 E.0246
G1 X60.793 Y103.886 E.02321
G1 X62.742 Y103.275 E.06404
G1 X88.178 Y103.279 E.79753
G1 X89.139 Y103.462 E.03067
M204 S1000
G1 X89.067 Y103.832 F10800
M204 S800
G1 F1200
G1 X90.003 Y104.224 E.03182
G1 X91.042 Y105.06 E.04181
G1 X91.838 Y106.25 E.04489
G1 X92.225 Y107.693 E.04684
G1 X92.225 Y133.084 E.79612
G1 X91.864 Y134.469 E.04488
G1 X91.09 Y135.669 E.04477
G1 X90.541 Y136.178 E.02347
G1 X89.991 Y136.566 E.0211
G1 X88.206 Y137.125 E.05865
G1 X62.793 Y137.125 E.79681
G1 X61.408 Y136.765 E.04487
G1 X60.208 Y135.99 E.04479
G1 X59.699 Y135.441 E.02347
G1 X59.311 Y134.891 E.0211
G1 X58.752 Y133.106 E.05865
G1 X58.752 Y107.693 E.79681
G1 X59.113 Y106.309 E.04485
G1 X59.887 Y105.108 E.0448
G1 X60.436 Y104.6 E.02345
G1 X60.986 Y104.211 E.02112
G1 X62.771 Y103.652 E.05865
G1 X88.159 Y103.656 E.79602
G1 X89.009 Y103.82 E.02714
M204 S1000
G1 X88.936 Y104.19 F10800
M204 S800
G1 F1200
G1 X89.012 Y104.205 E.00243
G1 X89.828 Y104.56 E.0279
G1 X90.781 Y105.334 E.03849
G1 X91.506 Y106.432 E.04125
G1 X91.848 Y107.717 E.04169
G1 X91.848 Y133.061 E.79464
G1 X91.53 Y134.291 E.03983
G1 X90.816 Y135.409 E.04159
G1 X90.294 Y135.892 E.0223
G1 X89.798 Y136.241 E.01902
G1 X88.177 Y136.748 E.05325
M73 P7 R60
G1 X62.817 Y136.748 E.79514
G1 X61.586 Y136.431 E.03986
M73 Q7 S60
G1 X60.468 Y135.716 E.04161
G1 X59.985 Y135.194 E.0223
G1 X59.636 Y134.698 E.01902
G1 X59.129 Y133.078 E.05322
G1 X59.129 Y107.717 E.79518
G1 X59.447 Y106.486 E.03986
G1 X60.161 Y105.368 E.04159
G1 X60.683 Y104.885 E.0223
G1 X61.179 Y104.537 E.019
G1 X62.8 Y104.029 E.05326
G1 X88.141 Y104.033 E.79455
G1 X88.877 Y104.178 E.02352
M204 S1000
G1 X88.803 Y104.547 F10800
M204 S800
G1 F1200
G1 X88.917 Y104.57 E.00365
G1 X89.652 Y104.894 E.02519
G1 X90.518 Y105.606 E.03515
G1 X91.173 Y106.611 E.03761
G1 X91.471 Y107.741 E.03664
G1 X91.471 Y133.036 E.79311
G1 X91.173 Y134.166 E.03664
G1 X90.542 Y135.149 E.03662
G1 X90.047 Y135.607 E.02114
G1 X89.606 Y135.915 E.01687
G1 X88.149 Y136.371 E.04787
G1 X62.841 Y136.371 E.79351
G1 X61.711 Y136.074 E.03663
G1 X60.729 Y135.442 E.03662
G1 X60.27 Y134.948 E.02114
G1 X59.962 Y134.506 E.01689
G1 X59.506 Y133.049 E.04787
G1 X59.506 Y107.742 E.79348
G1 X59.803 Y106.611 E.03666
G1 X60.435 Y105.629 E.03662
G1 X60.929 Y105.171 E.02112
G1 X61.371 Y104.863 E.01689
G1 X62.828 Y104.407 E.04787
G1 X88.122 Y104.41 E.79308
G1 X88.744 Y104.535 E.01989
M204 S1000
G1 X88.67 Y104.901 F10800
M204 S800
G1 F1200
G1 X88.784 Y104.924 E.00365
G1 X89.476 Y105.228 E.0237
G1 X90.255 Y105.877 E.03179
G1 X90.817 Y106.739 E.03226
G1 X91.094 Y107.766 E.03335
G1 X91.094 Y133.012 E.79157
G1 X90.839 Y133.989 E.03166
G1 X90.267 Y134.889 E.03344
G1 X89.801 Y135.321 E.01992
G1 X89.415 Y135.589 E.01473
G1 X88.12 Y135.994 E.04254
G1 X62.865 Y135.994 E.79185
G1 X61.888 Y135.739 E.03166
G1 X60.988 Y135.168 E.03342
G1 X60.556 Y134.701 E.01995
G1 X60.288 Y134.315 E.01473
