; generated by PrusaSlicer 2.6.0-alpha6+MacOS-x64 on 2023-04-22 at 15:19:23 UTC


;
;
; 

; external perimeters extrusion width = 0.45mm
; perimeters extrusion width = 0.45mm
; infill extrusion width = 0.45mm
; solid infill extrusion width = 0.45mm
; top infill extrusion width = 0.40mm
; first layer extrusion width = 0.42mm

; external perimeters extrusion width = 0.45mm
; perimeters extrusion width = 0.45mm
; infill extrusion width = 0.45mm
; solid infill extrusion width = 0.45mm
; top infill extrusion width = 0.40mm
; first layer extrusion width = 0.42mm

M73 P0 R58
M73 C56
M73 Q0 S58
M73 D56
M201 X1000 Y1000 Z200 E5000 ; sets maximum accelerations, mm/sec^2
M203 X200 Y200 Z12 E120 ; sets maximum feedrates, mm / sec
M204 S1250 T1250 ; sets acceleration (S) and retract acceleration (R), mm/sec^2
M205 X8.00 Y8.00 Z0.40 E4.50 ; sets the jerk limits, mm/sec
M205 S0 T0 ; sets the minimum extruding and travel feed rate, mm/sec
;TYPE:Custom
M862.3 P "MK3S" ; printer model check
M862.1 P0.4 ; nozzle diameter check
M115 U3.12.2 ; tell printer latest fw version
G90 ; use absolute coordinates
M83 ; extruder relative mode
M104 S240 ; set extruder temp
M140 S85 ; set bed temp
M190 S85 ; wait for bed temp
M109 S240 ; wait for extruder temp
G28 W ; home all without mesh bed level
G80 ; mesh bed leveling

G1 Z0.2 F720
G1 Y-3 F1000 ; go outside print area
G92 E0
G1 X60 E9 F1000 ; intro line
G1 X100 E12.5 F1000 ; intro line

G92 E0
M221 S95

; Don't change E values below. Excessive value can damage the printer.
M907 E430 ; set extruder motor current
G21 ; set units to millimeters
G90 ; use absolute coordinates
M83 ; use relative distances for extrusion
M900 K0.08 ; Filament gcode LA 1.5
M900 K45 ; Filament gcode LA 1.0
M107
;LAYER_CHANGE
;Z:0.2
;HEIGHT:0.2
;BEFORE_LAYER_CHANGE
G92 E0.0
;0.2


G1 E-1 F2100
G1 Z.2 F720
;AFTER_LAYER_CHANGE
;0.2
G1 Z.4
G1 X97.563 Y38.805 F10800
G1 Z.2 F720
G1 E1 F2100
M204 S800
;TYPE:Skirt/Brim
;WIDTH:0.42
G1 F1200
G1 X98.259 Y37.125 E.05702
G1 X101.247 Y34.137 E.13249
G1 X102.927 Y33.441 E.05702
G1 X147.073 Y33.441 E1.38417
G1 X148.753 Y34.137 E.05702
G1 X152.047 Y37.501 E.14762
G1 X189.572 Y94.68 E2.14441
G1 X189.962 Y95.984 E.04268
G1 X189.962 Y114.809 E.59024
G1 X189.564 Y116.126 E.04314
G1 X152.039 Y172.512 E2.12366
G1 X148.753 Y175.863 E.14715
G1 X147.073 Y176.559 E.05702
G1 X102.927 Y176.559 E1.38417
G1 X101.247 Y175.863 E.05702
G1 X98.259 Y172.875 E.13249
G1 X97.563 Y171.195 E.05702
G1 X97.563 Y38.865 E4.14911
M204 S1000
;WIPE_START
G1 F8640
M73 P0 R57
G1 X98.259 Y37.125 E-.43272
G1 X99.996 Y35.388 E-.56728
;WIPE_END
G1 Z.4 F720
G1 X100.381 Y39.642 F10800
G1 Z.2 F720
G1 E1 F2100
M204 S800
G1 F1200
G1 X100.974 Y38.316 E.04554
G1 X101.955 Y37.212 E.04631
G1 X103.207 Y36.455 E.04587
G1 X104.622 Y36.104 E.04571
G1 X145.349 Y36.108 E1.27697
G1 X146.37 Y36.302 E.03259
G1 X147.348 Y36.718 E.03332
G1 X148.472 Y37.613 E.04505
G1 X149.365 Y38.952 E.05046
G1 X149.774 Y40.497 E.05011
G1 X149.774 Y169.396 E4.04154
G1 X149.619 Y170.358 E.03055
M73 P1 R57
M73 Q1 S58
G1 X149.026 Y171.684 E.04554
G1 X148.045 Y172.788 E.04631
G1 X146.793 Y173.545 E.04587
G1 X145.378 Y173.896 E.04571
G1 X104.726 Y173.896 E1.27461
G1 X103.764 Y173.741 E.03055
G1 X102.438 Y173.148 E.04554
G1 X101.334 Y172.167 E.04631
G1 X100.577 Y170.915 E.04587
G1 X100.226 Y169.5 E.04571
G1 X100.226 Y40.604 E4.04144
G1 X100.372 Y39.701 E.02868
M204 S1000
M73 C55
M73 Q1 S57
G1 X100.744 Y39.762 F10800
M204 S800
G1 F1200
G1 X101.306 Y38.498 E.04337
G1 X102.176 Y37.518 E.04109
G1 X103.328 Y36.813 E.04235
G1 X104.646 Y36.481 E.04262
G1 X145.331 Y36.485 E1.27565
G1 X146.277 Y36.668 E.03021
G1 X147.175 Y37.053 E.03063
G1 X148.214 Y37.889 E.04181
G1 X149.009 Y39.079 E.04487
G1 X149.396 Y40.522 E.04684
G1 X149.396 Y169.381 E4.04028
G1 X149.251 Y170.272 E.0283
G1 X148.694 Y171.502 E.04234
G1 X147.824 Y172.482 E.04109
G1 X146.672 Y173.187 E.04235
G1 X145.355 Y173.519 E.04259
G1 X104.742 Y173.519 E1.27339
G1 X103.85 Y173.373 E.02834
M73 D55
G1 X102.62 Y172.816 E.04234
G1 X101.641 Y171.946 E.04107
G1 X100.935 Y170.794 E.04236
G1 X100.604 Y169.477 E.04258
G1 X100.604 Y40.619 E4.04025
G1 X100.734 Y39.822 E.02532
M204 S1000
G1 X101.106 Y39.883 F10800
M204 S800
G1 F1200
G1 X101.117 Y39.815 E.00216
G1 X101.636 Y38.682 E.03907
G1 X102.437 Y37.792 E.03754
G1 X103.498 Y37.151 E.03887
G1 X104.668 Y36.859 E.03781
G1 X145.312 Y36.862 E1.27436
G1 X146.184 Y37.034 E.02787
G1 X147 Y37.389 E.0279
G1 X147.953 Y38.163 E.03849
G1 X148.677 Y39.261 E.04124
G1 X149.019 Y40.546 E.04169
G1 X149.019 Y169.365 E4.03903
G1 X148.883 Y170.185 E.02606
M73 P2 R57
M73 Q2 S57
G1 X148.364 Y171.318 E.03907
G1 X147.563 Y172.208 E.03754
G1 X146.502 Y172.849 E.03887
G1 X145.332 Y173.141 E.03781
G1 X104.757 Y173.141 E1.2722
G1 X103.937 Y173.005 E.02606
G1 X102.804 Y172.486 E.03907
G1 X101.914 Y171.685 E.03754
G1 X101.273 Y170.624 E.03887
G1 X100.981 Y169.454 E.03781
G1 X100.981 Y40.635 E4.03903
G1 X101.096 Y39.943 E.02199
M204 S1000
G1 X101.467 Y40.006 F10800
M204 S800
G1 F1200
G1 X101.485 Y39.903 E.00328
G1 X101.937 Y38.91 E.03421
G1 X102.658 Y38.098 E.03405
G1 X103.62 Y37.509 E.03537
G1 X104.692 Y37.236 E.03468
G1 X145.293 Y37.239 E1.27302
G1 X146.089 Y37.399 E.02546
G1 X146.824 Y37.723 E.02519
G1 X147.69 Y38.435 E.03515
G1 X148.345 Y39.441 E.03764
G1 X148.642 Y40.57 E.0366
G1 X148.642 Y169.349 E4.03778
G1 X148.515 Y170.097 E.02379
M73 P2 R56
G1 X148.063 Y171.09 E.03421
G1 X147.342 Y171.902 E.03405
G1 X146.38 Y172.491 E.03537
G1 X145.308 Y172.764 E.03468
G1 X104.773 Y172.764 E1.27095
G1 X104.025 Y172.637 E.02379
G1 X103.032 Y172.185 E.03421
G1 X102.22 Y171.464 E.03405
G1 X101.631 Y170.502 E.03537
G1 X101.358 Y169.43 E.03468
G1 X101.358 Y40.651 E4.03778
G1 X101.457 Y40.065 E.01863
M204 S1000
G1 X101.824 Y40.125 F10800
M204 S800
M73 C54
G1 F1200
G1 X101.838 Y40.036 E.00282
G1 X102.268 Y39.094 E.03247
G1 X102.92 Y38.371 E.03053
G1 X103.742 Y37.866 E.03025
G1 X104.717 Y37.613 E.03158
G1 X145.275 Y37.616 E1.27167
G1 X145.956 Y37.753 E.02178
G1 X146.647 Y38.057 E.02367
G1 X147.427 Y38.706 E.03181
G1 X147.989 Y39.568 E.03226
G1 X148.265 Y40.596 E.03337
G1 X148.265 Y169.334 E4.03649
G1 X148.162 Y169.964 E.02002
M73 P3 R56
M73 Q3 S56
G1 X147.732 Y170.906 E.03247
G1 X147.08 Y171.629 E.03053
G1 X146.258 Y172.134 E.03025
G1 X145.283 Y172.387 E.03158
G1 X104.788 Y172.387 E1.26969
G1 X104.158 Y172.284 E.02002
G1 X103.216 Y171.854 E.03247
G1 X102.493 Y171.202 E.03053
G1 X101.988 Y170.38 E.03025
G1 X101.735 Y169.405 E.03158
G1 X101.735 Y40.666 E4.03652
G1 X101.814 Y40.184 E.01531
M204 S1000
M73 D54
G1 X102.185 Y40.247 F10800
M204 S800
G1 F1200
G1 X102.206 Y40.123 E.00394
G1 X102.569 Y39.322 E.02757
G1 X103.144 Y38.676 E.02712
G1 X103.868 Y38.223 E.02678
G1 X104.742 Y37.99 E.02836
G1 X145.255 Y37.993 E1.27026
G1 X145.859 Y38.118 E.01934
G1 X146.468 Y38.39 E.02091
G1 X147.161 Y38.975 E.02844
G1 X147.655 Y39.746 E.02871
G1 X147.888 Y40.62 E.02836
G1 X147.888 Y169.318 E4.03524
G1 X147.794 Y169.877 E.01777
G1 X147.431 Y170.678 E.02757
G1 X146.856 Y171.324 E.02712
G1 X146.132 Y171.777 E.02678
G1 X145.258 Y172.01 E.02836
G1 X104.804 Y172.01 E1.26841
G1 X104.245 Y171.916 E.01777
G1 X103.444 Y171.553 E.02757
G1 X102.798 Y170.978 E.02712
G1 X102.345 Y170.254 E.02678
G1 X102.112 Y169.38 E.02836
G1 X102.112 Y40.682 E4.03524
G1 X102.175 Y40.306 E.01195
M204 S1000
G1 X102.546 Y40.37 F10800
M204 S800
G1 F1200
G1 X102.573 Y40.213 E.00499
G1 X102.899 Y39.508 E.02435
G1 X103.405 Y38.948 E.02366
G1 X103.995 Y38.579 E.02182
G1 X104.768 Y38.367 E.02513
G1 X145.235 Y38.371 E1.26881
G1 X145.759 Y38.482 E.01679
G1 X146.287 Y38.722 E.01819
G1 X146.894 Y39.243 E.02508
G1 X147.299 Y39.874 E.02351
G1 X147.511 Y40.646 E.0251
G1 X147.511 Y169.301 E4.03389
G1 X147.427 Y169.787 E.01546
M73 P4 R56
M73 Q4 S56
G1 X147.101 Y170.492 E.02435
G1 X146.595 Y171.052 E.02366
G1 X146.005 Y171.421 E.02182
G1 X145.232 Y171.633 E.02513
G1 X104.821 Y171.633 E1.26706
G1 X104.335 Y171.549 E.01546
M73 P4 R55
G1 X103.63 Y171.223 E.02435
G1 X103.07 Y170.717 E.02366
G1 X102.701 Y170.127 E.02182
G1 X102.489 Y169.354 E.02513
G1 X102.489 Y40.699 E4.03389
G1 X102.536 Y40.429 E.00859
M204 S1000
G1 X102.903 Y40.49 F10800
M204 S800
G1 F1200
G1 X102.927 Y40.343 E.00467
G1 X103.201 Y39.735 E.02091
G1 X103.632 Y39.251 E.02032
G1 X104.126 Y38.933 E.01842
G1 X104.795 Y38.744 E.0218
G1 X145.213 Y38.748 E1.26728
G1 X145.657 Y38.845 E.01425
G1 X146.103 Y39.052 E.01542
G1 X146.626 Y39.509 E.02178
G1 X146.945 Y40.004 E.01846
G1 X147.134 Y40.673 E.0218
G1 X147.134 Y169.286 E4.03257
G1 X147.073 Y169.657 E.01179
M73 C53
G1 X146.799 Y170.265 E.02091
G1 X146.368 Y170.749 E.02032
G1 X145.874 Y171.067 E.01842
G1 X145.205 Y171.256 E.0218
G1 X104.836 Y171.256 E1.26574
G1 X104.465 Y171.195 E.01179
G1 X103.857 Y170.921 E.02091
G1 X103.373 Y170.49 E.02032
G1 X103.055 Y169.996 E.01842
G1 X102.866 Y169.327 E.0218
G1 X102.866 Y40.714 E4.03257
G1 X102.893 Y40.549 E.00524
M204 S1000
M73 Q4 S55
G1 X103.263 Y40.613 F10800
M204 S800
G1 F1200
G1 X103.294 Y40.433 E.00573
G1 X103.53 Y39.921 E.01768
G1 X103.893 Y39.523 E.01689
G1 X104.259 Y39.287 E.01365
G1 X104.823 Y39.121 E.01843
G1 X145.191 Y39.125 E1.26571
G1 X145.551 Y39.208 E.01158
G1 X145.916 Y39.38 E.01265
G1 X146.356 Y39.772 E.01848
G1 X146.591 Y40.137 E.01361
G1 X146.757 Y40.701 E.01843
G1 X146.757 Y169.269 E4.03116
G1 X146.706 Y169.567 E.00948
M73 P5 R55
M73 Q5 S55
M73 D53
G1 X146.47 Y170.079 E.01768
G1 X146.107 Y170.477 E.01689
G1 X145.741 Y170.713 E.01365
G1 X145.177 Y170.879 E.01843
G1 X104.853 Y170.879 E1.26433
G1 X104.555 Y170.828 E.00948
G1 X104.043 Y170.592 E.01768
G1 X103.645 Y170.229 E.01689
G1 X103.409 Y169.863 E.01365
G1 X103.243 Y169.299 E.01843
G1 X103.253 Y40.672 E4.03301
M204 S1000
G1 X103.622 Y40.732 F10800
M204 S800
G1 F1200
G1 X103.65 Y40.561 E.00543
G1 X103.83 Y40.152 E.01401
G1 X104.155 Y39.795 E.01514
G1 X104.397 Y39.639 E.00903
G1 X104.852 Y39.498 E.01494
G1 X145.169 Y39.502 E1.26411
G1 X145.408 Y39.557 E.00769
G1 X145.728 Y39.708 E.01109
G1 X146.083 Y40.033 E.01509
G1 X146.239 Y40.275 E.00903
G1 X146.38 Y40.73 E.01494
G1 X146.38 Y169.255 E4.02981
G1 X146.35 Y169.439 E.00585
G1 X146.17 Y169.849 E.01404
G1 X145.845 Y170.205 E.01511
G1 X145.603 Y170.361 E.00903
G1 X145.148 Y170.502 E.01494
G1 X104.867 Y170.502 E1.26298
G1 X104.683 Y170.472 E.00585
G1 X104.274 Y170.292 E.01401
G1 X103.917 Y169.967 E.01514
G1 X103.761 Y169.725 E.00903
G1 X103.62 Y169.27 E.01494
G1 X103.62 Y40.792 E4.02834
M204 S1000
G1 X103.997 Y40.792 F10800
M204 S800
G1 F1200
G1 X104.017 Y40.651 E.00447
G1 X104.159 Y40.339 E.01075
G1 X104.413 Y40.071 E.01158
G1 X104.54 Y39.988 E.00476
G1 X104.884 Y39.875 E.01135
G1 X145.147 Y39.879 E1.26242
G1 X145.264 Y39.906 E.00376
M73 P5 R54
G1 X145.538 Y40.036 E.00951
G1 X145.807 Y40.291 E.01162
G1 X145.89 Y40.418 E.00476
G1 X146.003 Y40.762 E.01135
G1 X146.003 Y169.238 E4.02827
G1 X145.983 Y169.349 E.00354
M73 P6 R54
M73 Q6 S55
G1 X145.841 Y169.661 E.01075
G1 X145.587 Y169.929 E.01158
G1 X145.46 Y170.012 E.00476
G1 X145.116 Y170.125 E.01135
G1 X104.884 Y170.125 E1.26145
G1 X104.773 Y170.106 E.00353
G1 X104.461 Y169.963 E.01076
G1 X104.193 Y169.709 E.01158
G1 X104.11 Y169.582 E.00476
G1 X103.997 Y169.238 E.01135
G1 X103.997 Y40.852 E4.02545
M204 S1000
G1 X104.374 Y40.852 F10800
M204 S800
M73 C52
G1 F1200
G1 X104.381 Y40.751 E.00317
G1 X104.484 Y40.533 E.00756
G1 X104.692 Y40.334 E.00903
G1 X104.919 Y40.252 E.00757
G1 X145.095 Y40.252 E1.25969
G1 X145.345 Y40.362 E.00856
M73 Q6 S54
G1 X145.526 Y40.543 E.00803
G1 X145.626 Y40.797 E.00856
G1 X145.626 Y169.217 E4.02652
G1 X145.516 Y169.467 E.00856
G1 X145.335 Y169.648 E.00803
G1 X145.081 Y169.748 E.00856
G1 X104.905 Y169.748 E1.25969
G1 X104.655 Y169.638 E.00856
G1 X104.474 Y169.457 E.00803
G1 X104.374 Y169.203 E.00856
G1 X104.374 Y40.912 E4.02247
M204 S1000
G1 X104.751 Y40.912 F10800
M204 S800
M73 D52
G1 F1200
G1 X104.751 Y40.839 E.00229
G1 X104.78 Y40.77 E.00235
G1 X104.892 Y40.658 E.00497
G1 X104.961 Y40.629 E.00235
G1 X145.039 Y40.629 E1.25662
G1 X145.108 Y40.658 E.00235
G1 X145.22 Y40.77 E.00497
G1 X145.249 Y40.839 E.00235
G1 X145.249 Y169.161 E4.02345
G1 X145.22 Y169.23 E.00235
M73 P7 R54
M73 Q7 S54
G1 X145.108 Y169.342 E.00497
G1 X145.039 Y169.371 E.00235
G1 X104.961 Y169.371 E1.25662
G1 X104.892 Y169.342 E.00235
G1 X104.78 Y169.23 E.00497
G1 X104.751 Y169.161 E.00235
G1 X104.751 Y40.972 E4.01928
M204 S1000
;WIPE_START
G1 F8640
G1 X104.751 Y40.839 E-.03071
G1 X104.78 Y40.77 E-.01728
G1 X104.892 Y40.658 E-.03657
G1 X104.961 Y40.629 E-.01728
G1 X108.851 Y40.629 E-.89816
;WIPE_END
G1 Z.4 F720
G1 X164.143 Y95.059 F10800
G1 Z.2 F720
G1 E1 F2100
M204 S800
G1 F1200
G1 X164.872 Y94.335 E.03221
G1 X165.489 Y93.895 E.02376
G1 X167.439 Y93.283 E.06408
G1 X182.875 Y93.287 E.48398
G1 X183.894 Y93.481 E.03252
G1 X184.873 Y93.896 E.03334
G1 X185.998 Y94.793 E.04511
G1 X186.865 Y96.075 E.04853
G1 X187.279 Y97.527 E.04734
G1 X187.298 Y113.115 E.48875
G1 X186.968 Y114.482 E.04409
G1 X186.227 Y115.735 E.04564
G1 X185.498 Y116.459 E.03221
G1 X184.881 Y116.899 E.02376
G1 X182.931 Y117.51 E.06407
G1 X167.466 Y117.51 E.48489
G1 X166.1 Y117.18 E.04406
G1 X164.847 Y116.439 E.04564
G1 X164.123 Y115.71 E.03221
G1 X163.683 Y115.093 E.02376
G1 X163.071 Y113.143 E.06408
G1 X163.071 Y97.678 E.48489
G1 X163.401 Y96.312 E.04406
G1 X164.112 Y95.11 E.04379
M204 S1000
G1 X164.435 Y95.304 F10800
M204 S800
G1 F1200
G1 X165.125 Y94.615 E.03057
G1 X165.682 Y94.219 E.02143
G1 X167.468 Y93.66 E.05868
G1 X182.856 Y93.664 E.48248
G1 X183.802 Y93.847 E.03021
G1 X184.7 Y94.232 E.03063
G1 X185.738 Y95.068 E.04179
G1 X186.534 Y96.259 E.04492
G1 X186.908 Y97.603 E.04374
G1 X186.921 Y113.092 E.48565
G1 X186.609 Y114.364 E.04106
G1 X185.916 Y115.52 E.04226
G1 X185.245 Y116.179 E.02949
G1 X184.687 Y116.574 E.02144
G1 X182.902 Y117.133 E.05865
G1 X167.49 Y117.133 E.48323
G1 X166.218 Y116.821 E.04106
G1 X165.062 Y116.128 E.04226
G1 X164.403 Y115.457 E.02949
G1 X164.008 Y114.899 E.02144
G1 X163.448 Y113.114 E.05866
G1 X163.448 Y97.702 E.48323
G1 X163.761 Y96.43 E.04107
G1 X164.405 Y95.355 E.03929
M204 S1000
G1 X164.726 Y95.551 F10800
M204 S800
M73 P7 R53
G1 F1200
G1 X164.762 Y95.491 E.00219
G1 X165.376 Y94.896 E.02681
G1 X165.875 Y94.545 E.01913
G1 X167.496 Y94.037 E.05326
G1 X182.837 Y94.041 E.48101
G1 X183.709 Y94.213 E.02787
G1 X184.525 Y94.568 E.0279
G1 X185.477 Y95.342 E.03847
G1 X186.202 Y96.44 E.04125
G1 X186.538 Y97.677 E.04019
G1 X186.544 Y113.069 E.48261
G1 X186.25 Y114.244 E.03798
G1 X185.607 Y115.302 E.03882
G1 X184.994 Y115.897 E.02679
G1 X184.494 Y116.249 E.01917
G1 X182.874 Y116.756 E.05322
G1 X167.513 Y116.756 E.48163
G1 X166.338 Y116.462 E.03798
G1 X165.279 Y115.819 E.03885
G1 X164.684 Y115.206 E.02679
G1 X164.333 Y114.706 E.01915
G1 X163.825 Y113.086 E.05323
G1 X163.825 Y97.725 E.48163
G1 X164.119 Y96.55 E.03798
G1 X164.695 Y95.602 E.03478
M204 S1000
G1 X165.015 Y95.8 F10800
M204 S800
G1 F1200
G1 X165.07 Y95.711 E.00328
G1 X165.625 Y95.179 E.02411
G1 X166.067 Y94.871 E.01689
G1 X167.525 Y94.414 E.04791
G1 X182.818 Y94.418 E.4795
G1 X183.614 Y94.578 E.02546
G1 X184.349 Y94.902 E.02519
G1 X185.215 Y95.614 E.03515
G1 X185.869 Y96.619 E.0376
G1 X186.167 Y97.749 E.03664
G1 X186.167 Y113.045 E.4796
G1 X185.893 Y114.122 E.03484
G1 X185.3 Y115.083 E.03541
G1 X184.744 Y115.614 E.02411
G1 X184.302 Y115.923 E.01691
G1 X182.845 Y116.379 E.04787
G1 X167.537 Y116.379 E.47997
G1 X166.46 Y116.105 E.03484
G1 X165.499 Y115.512 E.03541
G1 X164.967 Y114.956 E.02413
G1 X164.659 Y114.514 E.01689
G1 X164.203 Y113.057 E.04787
G1 X164.203 Y97.749 E.47997
G1 X164.477 Y96.672 E.03484
G1 X164.984 Y95.851 E.03025
M204 S1000
G1 X165.302 Y96.05 F10800
M204 S800
G1 F1200
G1 X165.376 Y95.933 E.00434
G1 X165.873 Y95.464 E.02143
G1 X166.258 Y95.197 E.01469
G1 X167.553 Y94.792 E.04254
G1 X182.8 Y94.795 E.47806
G1 X183.48 Y94.932 E.02175
G1 X184.172 Y95.236 E.0237
G1 X184.952 Y95.885 E.03181
G1 X185.513 Y96.747 E.03225
G1 X185.79 Y97.774 E.03335
G1 X185.79 Y113.02 E.47803
G1 X185.535 Y113.998 E.03169
G1 X184.994 Y114.861 E.03194
G1 X184.497 Y115.329 E.0214
G1 X184.111 Y115.597 E.01473
G1 X182.817 Y116.002 E.04251
